!!!!SEGMENT: pl-cz--iii-188--005_elsner-jozef--vesperae-c-op-36-laudate-domium.krn
!!!cenid: 18xx:232
!!!COM: Elsner, Józef
!!!COM-rismid: pe30000957
!!!CDT: 1769/06/01-1854/04/18
!!!CNT: Polish
!!!OPR: Vesperae C op. 36
!!!OTL: Laudate Domium
!!!OMV: 005
!!!PDT: 1834
!!!AGN: Sacred; Vespers
!!!SMS-siglum: PL-CZ
!!!SMS-shelfmark: III-188
!!!SMS-shelfwork: 001-005 M
!!!NIFC-rismid:
!!!URL-scan: http://repozytorium.nifc.pl/skany/pl-cz-nut--iii-188
!!!ONB-nifc:
!!!AIN: 1 alto 2 bass 2 clars 2 cor 1 fagot 1 flt 1 organ 1 tenor 1 viola 2 violn 1 vox
!!!key:
**kern	**fb	**dynam	**kern	**dynam	**kern	**dynam	**kern	**dynam	**kern	**dynam	**kern	**text	**dynam	**kern	**text	**dynam	**kern	**text	**dynam	**kern	**text	**dynam	**kern	**dynam	**kern	**dynam	**kern	**kern	**dynam	**kern	**dynam	**kern	**dynam
*part15	*	*part15	*part14	*part14	*part13	*part13	*part12	*part12	*part11	*part11	*part10	*part10	*part10	*part9	*part9	*part9	*part8	*part8	*part8	*part7	*part7	*part7	*part6	*part6	*part5	*part5	*part4	*part3	*part3	*part2	*part2	*part1	*part1
*staff15	*	*	*staff14	*	*staff13	*	*staff12	*	*staff11	*	*staff10	*staff10	*	*staff9	*staff9	*	*staff8	*staff8	*	*staff7	*staff7	*	*staff6	*	*staff5	*	*staff4	*staff3	*	*staff2	*	*staff1	*
*Iorgan	*	*	*Ibass	*	*Iviola	*	*Ivioln	*	*Ivioln	*	*Ibass	*	*	*Itenor	*	*	*Ialto	*	*	*Ivox	*	*	*Icor	*	*Icor	*	*Ifagot	*Iclars	*	*Iclars	*	*Iflt	*
*I"Organo	*	*	*I"Basso	*	*I"Viola	*	*I"Violino 2do	*	*I"Violino 1mo	*	*I"Basso.	*	*	*I"Tenore.	*	*	*I"Alto.	*	*	*I"Canto.	*	*	*I"Corno 2do	*	*I"Corno 1mo in F	*	*I"Fagotto 1.mo et Secundo	*I"Clarinetto 2do. in C.	*	*I"Clarinetto 1mo in C.	*	*I"Flauto	*
*I'Org.	*	*	*I'Vc.	*	*I'Vla.	*	*I'V-no 2	*	*I'Vln. 1	*	*I'B.	*	*	*I'T.	*	*	*I'A.	*	*	*I'S.	*	*	*I'Hn.	*	*I'Hn.	*	*I'Bsn.	*I'Cl.	*	*I'Cl.	*	*I'Fl.	*
*group5	*	*	*group4	*	*group4	*	*group4	*	*group4	*	*group3	*	*	*group3	*	*	*group3	*	*	*group3	*	*	*group2	*	*group2	*	*group1	*group1	*	*group1	*	*group1	*
*clefF4	*	*	*clefF4	*	*clefC3	*	*clefG2	*	*clefG2	*	*clefF4	*	*	*clefC4	*	*	*clefC3	*	*	*clefC1	*	*	*clefG2	*	*clefG2	*	*clefF4	*clefG2	*	*clefG2	*	*clefG2	*
*	*	*	*	*	*	*	*	*	*	*	*	*	*	*	*	*	*	*	*	*	*	*	*ITrd4c7	*	*ITrd4c7	*	*	*	*	*	*	*	*
*k[b-]	*	*	*k[b-]	*	*k[b-]	*	*k[b-]	*	*k[b-]	*	*k[b-]	*	*	*k[b-]	*	*	*k[b-]	*	*	*k[b-]	*	*	*k[b-]	*	*k[b-]	*	*k[b-]	*k[b-]	*	*k[b-]	*	*k[b-]	*
*F:	*	*	*F:	*	*F:	*	*F:	*	*F:	*	*F:	*	*	*F:	*	*	*F:	*	*	*F:	*	*	*	*	*	*	*F:	*F:	*	*F:	*	*F:	*
*M2/2	*	*	*M2/2	*	*M2/2	*	*M2/2	*	*M2/2	*	*M2/2	*	*	*M2/2	*	*	*M2/2	*	*	*M2/2	*	*	*M2/2	*	*M2/2	*	*M2/2	*M2/2	*	*M2/2	*	*M2/2	*
*met(c|)	*	*	*met(c|)	*	*met(c|)	*	*met(c|)	*	*met(c|)	*	*met(c|)	*	*	*met(c|)	*	*	*met(c|)	*	*	*met(c|)	*	*	*met(c|)	*	*met(c|)	*	*met(c|)	*met(c|)	*	*met(c|)	*	*met(c|)	*
=1	=1	=1	=1	=1	=1	=1	=1	=1	=1	=1	=1	=1	=1	=1	=1	=1	=1	=1	=1	=1	=1	=1	=1	=1	=1	=1	=1	=1	=1	=1	=1	=1	=1
!	!	!	!	!	!	!	!	!	!LO:TX:a:t=Alegro	!	!LO:TX:a:t=16.	!	!	!LO:TX:a:t=11.	!	!	!LO:TX:a:t=Allegro	!	!	!LO:TX:a:t=Allegro	!	!	!	!	!	!	!	!	!	!LO:TX:a:B:t=Allegro in C.	!	!LO:TX:a:t=problem:oznaczenie tempa "Alegro"	!LO:DY:t=for
!	!	!	!	!	!	!	!	!	!	!	!LO:TX:a:t=Allegro	!	!	!LO:TX:a:t=Allegro.	!	!	!LO:TX:a:t=6.	!	!	!LO:TX:a:t=1.	!	!	!LO:TX:a:t=problem:oznaczenie tempa "Allegro."	!	!LO:TX:a:t=Allegro	!	!LO:TX:a:t=Allo	!	!	!LO:DY:b	!	!LO:TX:a:B:t=Allegro	!LO:DY:b
!	!	!	!	!	!	!	!	!	!	!	!	!	!	!	!	!	!	!	!	!	!	!	!	!	!	!	!	!	!	!	!	!	!LO:DY:t=for
2FF/	8_	ff	2FF/	ff	2F/	.	4f/ 4a	ff	4a\ 4ff	ff	1r	.	.	00r	.	.	00r	.	.	1r	.	.	4A/	ff	4f\	f	2FF/	4a\	ff	4ff\	f	4fff\	f
.	.	.	.	.	.	.	8f/L 8a	.	8a\L 8ff	.	.	.	.	.	.	.	.	.	.	.	.	.	8A/L	.	8f\L	.	.	8a\L	.	8ff\L	.	8fff\L	.
.	.	.	.	.	.	.	8f/J 8a	.	8a\J 8ff	.	.	.	.	.	.	.	.	.	.	.	.	.	8A/J	.	8f\J	.	.	8a\J	.	8ff\J	.	8fff\J	.
4AA/	.	.	4AA/	.	4A/	.	4f/ 4a	.	4a\ 4ff	.	.	.	.	.	.	.	.	.	.	.	.	.	4A/	.	4f\	.	4AA/	4a\	.	4ff\	.	4fff\	.
4C/	.	.	4C/	.	4c\	.	4f/ 4a	.	4a\ 4ff	.	.	.	.	.	.	.	.	.	.	.	.	.	4A/	.	4f\	.	4C/	4a\	.	4ff\	.	4fff\	.
=2	=2	=2	=2	=2	=2	=2	=2	=2	=2	=2	=2	=2	=2	=2	=2	=2	=2	=2	=2	=2	=2	=2	=2	=2	=2	=2	=2	=2	=2	=2	=2	=2	=2
4F\	.	.	4F\	.	4f\	.	4f/ 4a	.	4a\ 4ff	.	1r	.	.	.	.	.	.	.	.	4r	.	.	4A/	.	4f\	.	4F\	4a\	.	4ff\	.	4fff\	.
*clefC1	*	*	*	*	*	*	*	*	*	*	*	*	*	*	*	*	*	*	*	*	*	*	*	*	*	*	*	*	*	*	*	*	*
8ff/L	x	.	4r	.	4r	.	4r	.	8ff\L	.	.	.	.	.	.	.	.	.	.	8ff\L	Lau-	.	4r	.	4r	.	4r	4r	.	4r	.	4r	.
8ee/J	.	.	.	.	.	.	.	.	8ee\J	.	.	.	.	.	.	.	.	.	.	8ee\J	.	.	.	.	.	.	.	.	.	.	.	.	.
4dd/	.	.	2r	.	2r	.	2r	.	4dd\	.	.	.	.	.	.	.	.	.	.	4dd\	-da-	.	2r	.	2r	.	2r	2r	.	2r	.	2r	.
4cc/	.	.	.	.	.	.	.	.	4cc\	.	.	.	.	.	.	.	.	.	.	4cc\	-te	.	.	.	.	.	.	.	.	.	.	.	.
=3	=3	=3	=3	=3	=3	=3	=3	=3	=3	=3	=3	=3	=3	=3	=3	=3	=3	=3	=3	=3	=3	=3	=3	=3	=3	=3	=3	=3	=3	=3	=3	=3	=3
!	!	!	!LO:TX:a:t=9.	!	!LO:TX:a:t=9.	!	!LO:TX:a:t=4.	!	!	!	!	!	!	!	!	!	!	!	!	!	!	!	!LO:TX:a:t=21.	!	!LO:TX:a:t=21.	!	!LO:TX:a:t=9.	!LO:TX:a:t=20.	!	!LO:TX:a:t=19.	!	!LO:TX:a:t=problem:pauzy 00r 00r 00r 00r 0r 1r adnotacja "19."	!
!	!	!	!	!	!	!	!	!	!	!	!	!	!	!	!	!	!	!	!	!	!	!	!	!	!	!	!	!	!	!	!	!LO:TX:a:t=19.	!
4b-/	.	.	00r	.	00r	.	00r	.	4b-\	.	1r	.	.	.	.	.	.	.	.	4b-\	Do-	.	1r	.	1r	.	00r	1r	.	1r	.	00r	.
8a/L	.	.	.	.	.	.	.	.	8a\L	.	.	.	.	.	.	.	.	.	.	8a\	-mi-	.	.	.	.	.	.	.	.	.	.	.	.
8g/J	.	.	.	.	.	.	.	.	8g\J	.	.	.	.	.	.	.	.	.	.	8g\	-num	.	.	.	.	.	.	.	.	.	.	.	.
4cc/	.	.	.	.	.	.	.	.	4cc\	.	.	.	.	.	.	.	.	.	.	4cc\	o-	.	.	.	.	.	.	.	.	.	.	.	.
[>4b-/	.	.	.	.	.	.	.	.	[4b-\	.	.	.	.	.	.	.	.	.	.	4b-\	-mnes	.	.	.	.	.	.	.	.	.	.	.	.
=4	=4	=4	=4	=4	=4	=4	=4	=4	=4	=4	=4	=4	=4	=4	=4	=4	=4	=4	=4	=4	=4	=4	=4	=4	=4	=4	=4	=4	=4	=4	=4	=4	=4
!	!	!	!	!	!	!	!	!	!	!	!	!	!	!	!	!	!	!	!	!LO:LB:g=original	!	!	!	!	!	!	!	!	!	!	!	!	!
4b-/]	.	.	.	.	.	.	.	.	4b-\]	.	1r	.	.	.	.	.	.	.	.	(4b-\	gen-	.	1r	.	1r	.	.	1r	.	1r	.	.	.
8a/L	.	.	.	.	.	.	.	.	8a\L	.	.	.	.	.	.	.	.	.	.	8a\L	.	.	.	.	.	.	.	.	.	.	.	.	.
8g/J	.	.	.	.	.	.	.	.	8g\J	.	.	.	.	.	.	.	.	.	.	8g\J)	.	.	.	.	.	.	.	.	.	.	.	.	.
4a/	.	.	.	.	.	.	.	.	4a\	.	.	.	.	.	.	.	.	.	.	4a\	-tes	.	.	.	.	.	.	.	.	.	.	.	.
[4cc/	.	.	.	.	.	.	.	.	[4cc\	.	.	.	.	.	.	.	.	.	.	4cc\	lau-	.	.	.	.	.	.	.	.	.	.	.	.
=5	=5	=5	=5	=5	=5	=5	=5	=5	=5	=5	=5	=5	=5	=5	=5	=5	=5	=5	=5	=5	=5	=5	=5	=5	=5	=5	=5	=5	=5	=5	=5	=5	=5
4cc/]	.	.	.	.	.	.	.	.	4cc\]	.	1r	.	.	00r	.	.	0r	.	.	4cc\	-da-	.	1r	.	1r	.	.	1r	.	1r	.	.	.
4bn/	.	.	.	.	.	.	.	.	4bn\	.	.	.	.	.	.	.	.	.	.	4bn\	-te	.	.	.	.	.	.	.	.	.	.	.	.
4.cc/	.	.	.	.	.	.	.	.	4.cc\	.	.	.	.	.	.	.	.	.	.	4.cc\	e-	.	.	.	.	.	.	.	.	.	.	.	.
16dd/LL	.	.	.	.	.	.	.	.	16dd\LL	.	.	.	.	.	.	.	.	.	.	16dd\LL	-um	.	.	.	.	.	.	.	.	.	.	.	.
16ee/JJ	.	.	.	.	.	.	.	.	16ee\JJ	.	.	.	.	.	.	.	.	.	.	16ee\JJ	.	.	.	.	.	.	.	.	.	.	.	.	.
=6	=6	=6	=6	=6	=6	=6	=6	=6	=6	=6	=6	=6	=6	=6	=6	=6	=6	=6	=6	=6	=6	=6	=6	=6	=6	=6	=6	=6	=6	=6	=6	=6	=6
!	!	!	!	!	!	!	!	!	!LO:LB:g=original	!	!	!	!	!	!	!	!	!	!	!	!	!	!	!	!	!	!	!	!	!	!	!	!
4.ff/	.	.	.	.	.	.	.	.	4.ff\	.	1r	.	.	.	.	.	.	.	.	4.ff\	om-	.	1r	.	1r	.	.	1r	.	1r	.	.	.
8ff/	.	.	.	.	.	.	.	.	8ff\	.	.	.	.	.	.	.	.	.	.	8ff\	-nes	.	.	.	.	.	.	.	.	.	.	.	.
4.ff/	.	.	.	.	.	.	.	.	4.ff\	.	.	.	.	.	.	.	.	.	.	4.ff\	po-	.	.	.	.	.	.	.	.	.	.	.	.
8ff/	.	.	.	.	.	.	.	.	8ff\	.	.	.	.	.	.	.	.	.	.	8ff\	-pu-	.	.	.	.	.	.	.	.	.	.	.	.
=7	=7	=7	=7	=7	=7	=7	=7	=7	=7	=7	=7	=7	=7	=7	=7	=7	=7	=7	=7	=7	=7	=7	=7	=7	=7	=7	=7	=7	=7	=7	=7	=7	=7
*^	*	*	*	*	*	*	*	*	*	*	*	*	*	*	*	*	*	*	*	*	*	*	*	*	*	*	*	*	*	*	*	*	*
*	*	*	*	*	*	*	*	*	*	*2\right	*	*	*	*	*	*	*	*	*	*	*	*	*	*	*	*	*	*	*	*	*	*	*	*
!LO:LB:g=original	!	!	!	!	!	!	!	!	!	!	!	!	!	!	!	!	!	!	!	!	!	!	!	!	!	!	!	!	!	!	!	!	!	!
2ee/	4r	.	.	00r	.	00r	.	4r	.	2ee\	.	1r	.	.	.	.	.	4r	.	.	2ee\	-li	.	1r	.	1r	.	00r	1r	.	1r	.	00r	.
.	8cc\L	.	.	.	.	.	.	8cc\L	.	.	.	.	.	.	.	.	.	8cc\L	Lau-	.	.	.	.	.	.	.	.	.	.	.	.	.	.	.
.	8bn\J	.	.	.	.	.	.	8bn\J	.	.	.	.	.	.	.	.	.	8bn\J	.	.	.	.	.	.	.	.	.	.	.	.	.	.	.	.
4ff/	4a\	.	.	.	.	.	.	4a\	.	(4ff\	.	.	.	.	.	.	.	4a\	-da-	.	(4ff\	lau-	.	.	.	.	.	.	.	.	.	.	.	.
4ee/	4g\	.	.	.	.	.	.	4g\	.	4ee\)	.	.	.	.	.	.	.	4g\	-te	.	4ee\)	.	.	.	.	.	.	.	.	.	.	.	.	.
=8	=8	=8	=8	=8	=8	=8	=8	=8	=8	=8	=8	=8	=8	=8	=8	=8	=8	=8	=8	=8	=8	=8	=8	=8	=8	=8	=8	=8	=8	=8	=8	=8	=8	=8
!	!	!	!	!	!	!	!	!	!	!	!	!	!	!	!	!	!	!	!	!	!LO:LB:g=original	!	!	!	!	!	!	!	!	!	!	!	!	!
2aa/	4f\	.	.	.	.	.	.	4f/	.	2aa\	.	1r	.	.	.	.	.	4f\	Do-	.	(2aa\	-da-	.	1r	.	1r	.	.	1r	.	1r	.	.	.
.	8e\L	.	.	.	.	.	.	8e/L	.	.	.	.	.	.	.	.	.	8e\	-mi-	.	.	.	.	.	.	.	.	.	.	.	.	.	.	.
.	8d\J	.	.	.	.	.	.	8d/J	.	.	.	.	.	.	.	.	.	8d\	-num	.	.	.	.	.	.	.	.	.	.	.	.	.	.	.
2bn/	4g\	.	.	.	.	.	.	4g/	.	2bn\	.	.	.	.	.	.	.	4g\	o-	.	2bn\)	.	.	.	.	.	.	.	.	.	.	.	.	.
.	[>4f\	.	.	.	.	.	.	[4f/	.	.	.	.	.	.	.	.	.	4f\	-mnes	.	.	.	.	.	.	.	.	.	.	.	.	.	.	.
=9	=9	=9	=9	=9	=9	=9	=9	=9	=9	=9	=9	=9	=9	=9	=9	=9	=9	=9	=9	=9	=9	=9	=9	=9	=9	=9	=9	=9	=9	=9	=9	=9	=9	=9
!	!	!	!	!	!	!	!	!LO:LB:g=original	!	!	!	!	!	!	!	!	!	!LO:LB:g=original	!	!	!	!	!	!	!	!	!	!	!	!	!	!	!	!
2cc/	4f\]	.	.	.	.	.	.	4f/]	.	2cc\	.	1r	.	.	0r	.	.	(4f\	gen-	.	2cc\	-te	.	1r	.	1r	.	.	1r	.	1r	.	.	.
.	8e\L	.	.	.	.	.	.	8e/L	.	.	.	.	.	.	.	.	.	8e\L	.	.	.	.	.	.	.	.	.	.	.	.	.	.	.	.
.	8d\J	.	.	.	.	.	.	8d/J	.	.	.	.	.	.	.	.	.	8d\J)	.	.	.	.	.	.	.	.	.	.	.	.	.	.	.	.
4g/	4e\	.	.	.	.	.	.	4e/	.	(4g\	.	.	.	.	.	.	.	4e\	-tes	.	(4g\	e-	.	.	.	.	.	.	.	.	.	.	.	.
4a/	[>4f\	.	.	.	.	.	.	[4f/	.	4a\)	.	.	.	.	.	.	.	4f\	lau-	.	4a\)	.	.	.	.	.	.	.	.	.	.	.	.	.
=10	=10	=10	=10	=10	=10	=10	=10	=10	=10	=10	=10	=10	=10	=10	=10	=10	=10	=10	=10	=10	=10	=10	=10	=10	=10	=10	=10	=10	=10	=10	=10	=10	=10	=10
2b-/	4f\]	.	.	.	.	.	.	4f/]	.	2b-\	.	1r	.	.	.	.	.	4f\	-da-	.	2b-\	.	.	1r	.	1r	.	.	1r	.	1r	.	.	.
.	4e\	.	.	.	.	.	.	4e/	.	.	.	.	.	.	.	.	.	4e\	-te	.	.	.	.	.	.	.	.	.	.	.	.	.	.	.
4.a/	4.f\	.	.	.	.	.	.	4.f/	.	(4.a\	.	.	.	.	.	.	.	4.f\	e-	.	4.a\	.	.	.	.	.	.	.	.	.	.	.	.	.
16b-/LL	16g\LL	.	.	.	.	.	.	16g/LL	.	16b-\LL	.	.	.	.	.	.	.	16g\LL	-um	.	(16b-\LL	-um	.	.	.	.	.	.	.	.	.	.	.	.
16cc/JJ	16a\JJ	.	.	.	.	.	.	16a/JJ	.	16cc\JJ)	.	.	.	.	.	.	.	16a\JJ	.	.	16cc\JJ)	.	.	.	.	.	.	.	.	.	.	.	.	.
=11	=11	=11	=11	=11	=11	=11	=11	=11	=11	=11	=11	=11	=11	=11	=11	=11	=11	=11	=11	=11	=11	=11	=11	=11	=11	=11	=11	=11	=11	=11	=11	=11	=11	=11
4.dd/	4.b-\	.	.	1r	.	1r	.	4.b-\	.	4.dd\	.	1r	.	.	1r	.	.	4.b-\	om-	.	4.dd\	om-	.	1r	.	1r	.	1r	1r	.	1r	.	00r	.
8dd/	8b-\	.	.	.	.	.	.	8b-\	.	8dd\	.	.	.	.	.	.	.	8b-\	-nes	.	8dd\	-nes	.	.	.	.	.	.	.	.	.	.	.	.
4.ee/	4.b-\	.	.	.	.	.	.	4.b-\	.	4.ee\	.	.	.	.	.	.	.	4.b-\	po-	.	4.ee\	po-	.	.	.	.	.	.	.	.	.	.	.	.
8ee/	8b-\	.	.	.	.	.	.	8b-\	.	8ee\	.	.	.	.	.	.	.	8b-\	-pu-	.	8ee\	-pu-	.	.	.	.	.	.	.	.	.	.	.	.
=12	=12	=12	=12	=12	=12	=12	=12	=12	=12	=12	=12	=12	=12	=12	=12	=12	=12	=12	=12	=12	=12	=12	=12	=12	=12	=12	=12	=12	=12	=12	=12	=12	=12	=12
*	*	*	*	*	*	*	*	*2\right	*	*	*	*	*	*	*	*	*	*	*	*	*	*	*	*	*	*	*	*clefC4	*	*	*	*	*	*
!	!	!	!	!	!	!	!	!	!	!	!	!	!	!	!	!	!	!LO:LB:g=original	!	!	!	!	!	!	!	!	!	!	!	!	!	!	!	!
4ff/	4a\	.	.	4r	.	4r	.	2a\	.	[1ff	.	1r	.	.	4r	.	.	2a\	-li	.	[1ff	-li	.	1r	.	1r	.	4r	1r	.	1r	.	.	.
*v	*v	*	*	*	*	*	*	*	*	*	*	*	*	*	*	*	*	*	*	*	*	*	*	*	*	*	*	*	*	*	*	*	*	*
*clefC4	*	*	*clefC4	*	*	*	*	*	*	*	*	*	*	*	*	*	*	*	*	*	*	*	*	*	*	*	*	*	*	*	*	*	*
!LO:TX:b:i:t=Violo	!	!	!	!	!	!	!	!	!	!	!	!	!	!	!	!	!	!	!	!	!	!	!	!	!	!	!	!	!	!	!	!	!
8f\L	8 3	.	8f\L	.	8f\L	.	.	.	.	.	.	.	.	8f\L	Lau-	.	.	.	.	.	.	.	.	.	.	.	8f\L	.	.	.	.	.	.
8e\J	.	.	8e\J	.	8e\J	.	.	.	.	.	.	.	.	8e\J	.	.	.	.	.	.	.	.	.	.	.	.	8e\J	.	.	.	.	.	.
4d\	-	.	4d\	.	4d\	.	4b-\	.	.	.	.	.	.	4d\	-da-	.	(4b-\	lau-	.	.	.	.	.	.	.	.	4d\	.	.	.	.	.	.
!LO:TX:a:t=V&colon;S&colon;	!	!	!	!	!	!	!	!	!	!	!	!	!	!	!	!	!	!	!	!	!	!	!	!	!	!	!	!	!	!	!	!	!
4c\	-	.	4c\	.	4c\	.	4a\	.	.	.	.	.	.	4c\	-te	.	4a\)	.	.	.	.	.	.	.	.	.	4c\	.	.	.	.	.	.
=13	=13	=13	=13	=13	=13	=13	=13	=13	=13	=13	=13	=13	=13	=13	=13	=13	=13	=13	=13	=13	=13	=13	=13	=13	=13	=13	=13	=13	=13	=13	=13	=13	=13
!LO:PB:g=original	!	!	!	!	!	!	!	!	!	!	!	!	!	!	!	!	!	!	!	!	!	!	!	!	!	!	!	!	!	!	!	!	!
4B-\	5 3_	.	4B-\	.	4B-\	.	2dd\	.	4ff\]	.	1r	.	.	4B-\	Do-	.	(2dd\	-da-	.	4ff\]	.	.	1r	.	1r	.	4B-\	1r	.	1r	.	.	.
8A\L	.	.	8A\L	.	8A\L	.	.	.	2gg\	.	.	.	.	8A\	-mi-	.	.	.	.	2gg\	lau-	.	.	.	.	.	8A\L	.	.	.	.	.	.
8G\J	6: _	.	8G\J	.	8G\J	.	.	.	.	.	.	.	.	8G\	-num	.	.	.	.	.	.	.	.	.	.	.	8G\J	.	.	.	.	.	.
4c\	X 3_	.	4c\	.	4c\	.	(2e/	.	.	.	.	.	.	4c\	o-	.	2e\)	.	.	.	.	.	.	.	.	.	4c\	.	.	.	.	.	.
[4B-\	2 _	.	[4B-\	.	[4B-\	.	.	.	[4cc\	.	.	.	.	[4B-\	-mnes	.	.	.	.	[4cc\	.	.	.	.	.	.	4B-\	.	.	.	.	.	.
=14	=14	=14	=14	=14	=14	=14	=14	=14	=14	=14	=14	=14	=14	=14	=14	=14	=14	=14	=14	=14	=14	=14	=14	=14	=14	=14	=14	=14	=14	=14	=14	=14	=14
!	!	!	!LO:LB:g=original	!	!	!	!	!	!LO:LB:g=original	!	!	!	!	!LO:LB:g=original	!	!	!	!	!	!LO:LB:g=original	!	!	!	!	!	!	!	!	!	!	!	!	!
4B-\]	2 5	.	4B-\]	.	4B-\]	.	2.f/)	.	4cc\]	.	1r	.	.	4B-\]	.	.	2.f\	-te	.	4cc\]	.	.	1r	.	1r	.	4B-\	1r	.	1r	.	.	.
8A\L	8 _	.	8A\L	.	8A/L	.	.	.	2ff\	.	.	.	.	8A\L	gen-	.	.	.	.	2ff\	-da-	.	.	.	.	.	8A\L	.	.	.	.	.	.
8G\J	.	.	8G\J	.	8G/J	.	.	.	.	.	.	.	.	8G\J	.	.	.	.	.	.	.	.	.	.	.	.	8G\J	.	.	.	.	.	.
4A\	.	.	4A\	.	4A\	.	.	.	.	.	.	.	.	4A\	-tes	.	.	.	.	.	.	.	.	.	.	.	4A\	.	.	.	.	.	.
[4c\	10_ 5	.	[4c\	.	[4c\	.	4g/	.	[4ee\	.	.	.	.	4c\	lau-	.	4g\	e-	.	[4ee\	.	.	.	.	.	.	4c\	.	.	.	.	.	.
=15	=15	=15	=15	=15	=15	=15	=15	=15	=15	=15	=15	=15	=15	=15	=15	=15	=15	=15	=15	=15	=15	=15	=15	=15	=15	=15	=15	=15	=15	=15	=15	=15	=15
!	!	!	!	!	!LO:LB:g=original	!	!	!	!	!	!	!	!	!	!	!	!	!	!	!	!	!	!	!	!	!	!	!	!	!	!	!	!
4c\]	X 4_	.	4c\]	.	4c\]	.	2f/	.	4ee\]	.	1r	.	.	4c\	-da-	.	2f\	.	.	4ee\]	.	.	1r	.	1r	.	4c\	1r	.	1r	.	00r	.
4Bn\	3_ _	.	4Bn\	.	4Bn\	.	.	.	2dd\	.	.	.	.	4Bn\	-te	.	.	.	.	2dd\	.	.	.	.	.	.	4Bn\	.	.	.	.	.	.
4.c\	X 3	.	4.c\	.	(4.c\	.	4.e/	.	.	.	.	.	.	4.c\	e-	.	4.e\	.	.	.	.	.	.	.	.	.	4.c\	.	.	.	.	.	.
.	.	.	.	.	.	.	.	.	4cc\	.	.	.	.	.	.	.	.	.	.	4cc\	-te	.	.	.	.	.	.	.	.	.	.	.	.
16d\LL	8 3_	.	(16d\LL	.	16d\LL	.	(16f/LL	.	.	.	.	.	.	16d\LL	-um	.	16f\LL	-um	.	.	.	.	.	.	.	.	(16d\LL	.	.	.	.	.	.
16e\JJ	X 3	.	16e\JJ	.	16e\JJ)	.	16g/JJ)	.	.	.	.	.	.	16e\JJ	.	.	16g\JJ	.	.	.	.	.	.	.	.	.	16e\JJ)	.	.	.	.	.	.
=16	=16	=16	=16	=16	=16	=16	=16	=16	=16	=16	=16	=16	=16	=16	=16	=16	=16	=16	=16	=16	=16	=16	=16	=16	=16	=16	=16	=16	=16	=16	=16	=16	=16
!	!	!	!	!	!	!	!LO:LB:g=original	!	!	!	!	!	!	!	!	!	!LO:LB:g=original	!	!	!	!	!	!	!	!	!	!LO:LB:g=original	!	!	!	!	!	!
4.f\	5_ 3	.	4.f\)	.	4.f\	.	4.a/	.	4.cc\	.	1r	.	.	4.f\	om-	.	4.a\	o-	.	4.cc\	om-	.	1r	.	1r	.	4.f\	1r	.	1r	.	.	.
8f\	.	.	8f\	.	8f\	.	8a/	.	8cc\	.	.	.	.	8f\	-nes	.	8a\	-mnes	.	8cc\	-nes	.	.	.	.	.	8f\	.	.	.	.	.	.
4.f\	6_ 4n	.	4.f\	.	4.f\	.	4.bn\	.	4.dd\	.	.	.	.	4.f\	po-	.	4.bn\	po-	.	4.dd\	po-	.	.	.	.	.	4.f\	.	.	.	.	.	.
8f\	.	.	8f\	.	8f\	.	8b\	.	8dd\	.	.	.	.	8f\	-pu-	.	8b\	-pu-	.	8dd\	-pu-	.	.	.	.	.	8f\	.	.	.	.	.	.
=17	=17	=17	=17	=17	=17	=17	=17	=17	=17	=17	=17	=17	=17	=17	=17	=17	=17	=17	=17	=17	=17	=17	=17	=17	=17	=17	=17	=17	=17	=17	=17	=17	=17
*	*	*	*	*	*2\right	*	*	*	*	*	*	*	*	*	*	*	*	*	*	*	*	*	*	*	*	*	*	*	*	*	*	*	*
!	!	!	!	!	!	!	!	!	!	!	!	!	!	!LO:LB:g=original	!	!	!	!	!	!	!	!	!	!	!	!	!LO:TX:a:t=5.	!	!	!	!	!	!
4e\	6	.	4e\	.	2e\	.	[1cc	.	2cc\	.	4r	.	.	2e\	-li	.	[1cc	-li	.	2cc\	-li	.	1r	.	1r	.	1r	1r	.	1r	.	.	.
*clefF4	*	*	*clefF4	*	*	*	*	*	*	*	*	*	*	*	*	*	*	*	*	*	*	*	*	*	*	*	*	*	*	*	*	*	*
!LO:TX:b:i:t=C:Bas	!	!	!	!	!	!	!	!	!	!	!	!	!	!	!	!	!	!	!	!	!	!	!	!	!	!	!	!	!	!	!	!	!
8c\L	8_ 3	.	8c\L	.	.	.	.	.	.	.	8c\L	Lau-	.	.	.	.	.	.	.	.	.	.	.	.	.	.	.	.	.	.	.	.	.
8Bn\J	.	.	8Bn\J	.	.	.	.	.	.	.	8Bn\J	.	.	.	.	.	.	.	.	.	.	.	.	.	.	.	.	.	.	.	.	.	.
4A\	_ 3	.	4A\	.	4f\	.	.	.	2r	.	4A\	-da-	.	(4f\	Lau-	.	.	.	.	2r	.	.	.	.	.	.	.	.	.	.	.	.	.
4G\	_ 3	.	4G\	.	4e\	.	.	.	.	.	4G\	-te	.	4e\)	.	.	.	.	.	.	.	.	.	.	.	.	.	.	.	.	.	.	.
=18	=18	=18	=18	=18	=18	=18	=18	=18	=18	=18	=18	=18	=18	=18	=18	=18	=18	=18	=18	=18	=18	=18	=18	=18	=18	=18	=18	=18	=18	=18	=18	=18	=18
!LO:LB:g=original	!	!	!	!	!	!	!	!	!LO:TX:a:t=4.	!	!	!	!	!	!	!	!	!	!	!LO:TX:a:t=4.	!	!	!	!	!	!	!	!	!	!	!	!	!
4F\	_ 3	.	4F\	.	2a\	.	4cc\]	.	00r	.	4F\	Do-	.	2a\	-da-	.	4cc\]	.	.	00r	.	.	1r	.	1r	.	1r	1r	.	1r	.	.	.
!LO:TX:a:t=problem: przekreślony bemol	!	!	!	!	!	!	!	!	!	!	!	!	!	!	!	!	!	!	!	!	!	!	!	!	!	!	!	!	!	!	!	!	!
8E\L	-_ _	.	8E\L	.	.	.	2dd\	.	.	.	8E\	-mi-	.	.	.	.	2dd\	lau-	.	.	.	.	.	.	.	.	.	.	.	.	.	.	.
8D\J	.	.	8D\J	.	.	.	.	.	.	.	8D\	-num	.	.	.	.	.	.	.	.	.	.	.	.	.	.	.	.	.	.	.	.	.
4G\	_ 3_	.	4G\	.	2Bn/	.	.	.	.	.	4G\	o-	.	2Bn\	.	.	.	.	.	.	.	.	.	.	.	.	.	.	.	.	.	.	.
[4F\	2 _	.	[4F\	.	.	.	[4g/	.	.	.	4F\	-mnes	.	.	.	.	[4g\	.	.	.	.	.	.	.	.	.	.	.	.	.	.	.	.
=19	=19	=19	=19	=19	=19	=19	=19	=19	=19	=19	=19	=19	=19	=19	=19	=19	=19	=19	=19	=19	=19	=19	=19	=19	=19	=19	=19	=19	=19	=19	=19	=19	=19
!	!	!	!LO:LB:g=original	!	!	!	!	!	!	!	!LO:LB:g=original	!	!	!	!	!	!	!	!	!	!	!	!	!	!	!	!	!	!	!	!	!	!
4F\]	_ 5	.	4F\]	.	2c\	.	4g/]	.	.	.	(4F\	gen-	.	2c\	-te	.	4g\]	.	.	.	.	.	1r	.	1r	.	1r	1r	.	1r	.	0r	.
8E\L	10_ _	.	8E\L	.	.	.	2cc\	.	.	.	8E\L	.	.	.	.	.	2cc\	-da-	.	.	.	.	.	.	.	.	.	.	.	.	.	.	.
8D\J	.	.	8D\J	.	.	.	.	.	.	.	8D\J)	.	.	.	.	.	.	.	.	.	.	.	.	.	.	.	.	.	.	.	.	.	.
4E\	_ 3	.	4E\	.	4G/	.	.	.	.	.	4E\	-tes	.	4G/	e-	.	.	.	.	.	.	.	.	.	.	.	.	.	.	.	.	.	.
[4F\	3	.	[4F\	.	4A/	.	[4a/	.	.	.	4F\	lau-	.	4A/	.	.	[4a\	.	.	.	.	.	.	.	.	.	.	.	.	.	.	.	.
=20	=20	=20	=20	=20	=20	=20	=20	=20	=20	=20	=20	=20	=20	=20	=20	=20	=20	=20	=20	=20	=20	=20	=20	=20	=20	=20	=20	=20	=20	=20	=20	=20	=20
!	!	!	!	!	!	!	!	!	!	!	!	!	!	!	!	!	!LO:LB:g=original	!	!	!	!	!	!	!	!	!	!	!	!	!	!	!	!
4F\]	10 4_	.	4F\]	.	2B-\	.	4a/]	.	.	.	4F\	-da-	.	2B-\	.	.	4a\]	.	.	.	.	.	1r	.	1r	.	1r	1r	.	1r	.	.	.
4E\	10 _	.	4E\	.	.	.	2g/	.	.	.	4E\	-te	.	.	.	.	2g\	.	.	.	.	.	.	.	.	.	.	.	.	.	.	.	.
!	!	!	!	!	!LO:TX:a:t=problem:łuk niejednoznaczny	!	!	!	!	!	!	!	!	!	!	!	!	!	!	!	!	!	!	!	!	!	!	!	!	!	!	!	!
4.F\	10 3	.	4.F\	.	(4.A/	.	.	.	.	.	4.F\	e-	.	4.A\	.	.	.	.	.	.	.	.	.	.	.	.	.	.	.	.	.	.	.
.	.	.	.	.	.	.	[4f/	.	.	.	.	.	.	.	.	.	4f\	-te	.	.	.	.	.	.	.	.	.	.	.	.	.	.	.
16G\LL	8 3	.	16G\LL	.	16B-/LL	.	.	.	.	.	(16G\LL	-um	.	16B-\LL	-um	.	.	.	.	.	.	.	.	.	.	.	.	.	.	.	.	.	.
16A\JJ	X 3	.	16A\JJ	.	16c/JJ)	.	.	.	.	.	16A\JJ)	.	.	16c\JJ	.	.	.	.	.	.	.	.	.	.	.	.	.	.	.	.	.	.	.
=21	=21	=21	=21	=21	=21	=21	=21	=21	=21	=21	=21	=21	=21	=21	=21	=21	=21	=21	=21	=21	=21	=21	=21	=21	=21	=21	=21	=21	=21	=21	=21	=21	=21
!	!	!	!	!	!LO:PB:g=original	!	!	!	!	!	!	!	!	!LO:LB:g=original	!	!	!	!	!	!	!	!	!	!	!	!	!	!	!	!	!	!	!
4.B-\	5: 3:	.	4.B-\	.	4.d\	.	4.f/]	.	.	.	4.B-\	o-	.	4.d\	o-	.	4.f\	o-	.	.	.	.	1r	.	1r	.	1r	1r	.	1r	.	1r	.
8B-\	x	.	8B-\	.	8d\	.	8f/	.	.	.	8B-\	-mni	.	8d\	-mnes	.	8f\	-mnes	.	.	.	.	.	.	.	.	.	.	.	.	.	.	.
4.B-\	6: 4:	.	4.B-\	.	4.e\	.	4.g/	.	.	.	4.B-\	po-	.	4.e\	po-	.	4.g\	po-	.	.	.	.	.	.	.	.	.	.	.	.	.	.	.
8B-\	x	.	8B-\	.	8e\	.	8g/	.	.	.	8B-\	-pu-	.	8e\	-pu-	.	8g\	-pu-	.	.	.	.	.	.	.	.	.	.	.	.	.	.	.
*	*	*	*	*	*	*	*	*	*	*	*	*	*	*	*	*	*	*	*	*	*	*	*	*	*	*	*clefF4	*	*	*	*	*	*
=22	=22	=22	=22	=22	=22	=22	=22	=22	=22	=22	=22	=22	=22	=22	=22	=22	=22	=22	=22	=22	=22	=22	=22	=22	=22	=22	=22	=22	=22	=22	=22	=22	=22
*2\right	*	*	*2\right	*	*	*	*	*	*	*	*	*	*	*	*	*	*	*	*	*	*	*	*	*	*	*	*2\right	*	*	*	*	*	*
!	!	!	!	!	!	!	!	!	!	!	!LO:LB:g=original	!	!	!	!	!	!	!	!	!	!	!	!	!	!	!	!LO:TX:a:t=problem:klucz basowy wpisany ołówkiem	!	!	!	!	!	!
2A\	6	.	2A\	.	1f	.	2a/	.	4r	.	2A\	-li	.	[1f	-li	.	2f\	-li	.	4r	.	.	1r	.	1r	.	2A\	1r	.	4r	.	4r	.
.	.	.	.	.	.	.	.	.	8ff\L	.	.	.	.	.	.	.	.	.	.	8ff\L	lau-	.	.	.	.	.	.	.	.	8ff\L	.	8fff\L	.
.	.	.	.	.	.	.	.	.	8ee\J	.	.	.	.	.	.	.	.	.	.	8ee\J	.	.	.	.	.	.	.	.	.	8ee\J	.	8eee\J	.
4B-\	10	.	4B-\	.	.	.	2r	.	4dd\	.	(4B-\	lau	.	.	.	.	2r	.	.	4dd\	-da-	.	.	.	.	.	4B-\	.	.	4dd\	.	4ddd\	.
4A\	10	.	4A\	.	.	.	.	.	4cc\	.	4A\)	.	.	.	.	.	.	.	.	4cc\	-te	.	.	.	.	.	4A\	.	.	(4cc\	.	(4ccc\	.
=23	=23	=23	=23	=23	=23	=23	=23	=23	=23	=23	=23	=23	=23	=23	=23	=23	=23	=23	=23	=23	=23	=23	=23	=23	=23	=23	=23	=23	=23	=23	=23	=23	=23
*tremolo	*	*	*	*	*	*	*	*	*	*	*	*	*	*	*	*	*	*	*	*	*	*	*	*	*	*	*	*	*	*	*	*	*
!LO:LB:g=original	!	!	!	!	!	!	!	!	!	!	!	!	!	!	!	!	!	!	!	!LO:LB:g=original	!	!	!	!	!	!	!	!	!	!	!	!	!
8d\L	6 3	.	2d\	.	4f\	.	2r	.	4b-\	.	(2d\	da-	.	4f\]	.	.	2r	.	.	4b-\	Do-	.	1r	.	1r	.	2d\	2r	.	4b-\)	.	4bb-\)	.
8d\	5	.	.	.	.	.	.	.	.	.	.	.	.	.	.	.	.	.	.	.	.	.	.	.	.	.	.	.	.	.	.	.	.
8d\	4	.	.	.	2g\	.	.	.	8a\L	.	.	.	.	2g\	la-	.	.	.	.	8a\	-mi-	.	.	.	.	.	.	.	.	8a/L	.	8aa\L	.
8d\J	.	.	.	.	.	.	.	.	8g\J	.	.	.	.	.	.	.	.	.	.	8g\	-num	.	.	.	.	.	.	.	.	8g/J	.	8gg\J	.
2E\	6 3_	.	2E\	.	.	.	2cc\	.	4cc\	.	2E\)	.	.	.	.	.	2cc\	lau-	.	4cc\	om-	.	.	.	.	.	2E\	2c/	.	4cc/	.	4ccc\	.
.	5	.	.	.	[4c\	.	.	.	[4b-\	.	.	.	.	[4c\	-u-	.	.	.	.	4b-\	-nes	.	.	.	.	.	.	.	.	[4b-/	.	[4bb-\	.
*Xtremolo	*	*	*	*	*	*	*	*	*	*	*	*	*	*	*	*	*	*	*	*	*	*	*	*	*	*	*	*	*	*	*	*	*
=24	=24	=24	=24	=24	=24	=24	=24	=24	=24	=24	=24	=24	=24	=24	=24	=24	=24	=24	=24	=24	=24	=24	=24	=24	=24	=24	=24	=24	=24	=24	=24	=24	=24
!	!	!	!LO:LB:g=original	!	!	!	!LO:LB:g=original	!	!	!	!	!	!	!	!	!	!LO:LB:g=original	!	!	!	!	!	!	!	!	!	!	!	!	!LO:LB:g=original	!	!LO:LB:g=original	!
2F\	4	.	2F\	.	4c\]	.	1cc	.	4b-\]	.	2F\	-te	.	4c\]	.	.	1cc	-da-	.	(4b-\	gen-	.	2r	.	2r	.	2F\	2.c/	.	4b-\]	.	4bb-\]	.
.	3	.	.	.	2f\	.	.	.	8a\L	.	.	.	.	2f\	-da-	.	.	.	.	8a\L	.	.	.	.	.	.	.	.	.	8a\L	.	8aa\L	.
.	2	.	.	.	.	.	.	.	8g\J	.	.	.	.	.	.	.	.	.	.	8g\J)	.	.	.	.	.	.	.	.	.	8g\J	.	8gg\J	.
*	*	*	*	*	*	*	*	*	*	*	*	*	*	*	*	*	*	*	*	*	*	*	*2\right	*	*2\right	*	*	*	*	*	*	*	*
2F\	3	.	2F\	.	.	.	.	.	4a\	.	2F\	lau-	.	.	.	.	.	.	.	4a\	-tes	.	2f\	.	2a\	.	2F\	.	.	4a\	.	4aa\	.
.	8	.	.	.	4A/	.	.	.	[4ff\	.	.	.	.	[4A\	-te	.	.	.	.	4ff\	lau-	.	.	.	.	.	.	4cc\	.	[4ff\	.	4fff\	.
=25	=25	=25	=25	=25	=25	=25	=25	=25	=25	=25	=25	=25	=25	=25	=25	=25	=25	=25	=25	=25	=25	=25	=25	=25	=25	=25	=25	=25	=25	=25	=25	=25	=25
!	!	!	!	!	!	!	!	!	!LO:LB:g=original	!	!	!	!	!LO:PB:g=original	!	!	!	!	!	!	!	!	!	!	!	!	!	!	!	!	!	!	!
2.G\	7 3_	.	2.G\	.	4A/	.	1b-	.	4ff\]	.	2.G\	-da-	.	4A\]	.	.	1b-	-te	.	(4ff\	-da-	.	2.g\	.	2.g\	.	2.G\	1b-	.	4ff\]	.	4fff\	.
.	6 _	.	.	.	2G/	.	.	.	8ee\L	.	.	.	.	2G\	o-	.	.	.	.	8ee\L	.	.	.	.	.	.	.	.	.	8ee\L	.	8eee\L	.
.	5 _	.	.	.	.	.	.	.	8dd\J	.	.	.	.	.	.	.	.	.	.	8dd\J)	.	.	.	.	.	.	.	.	.	8dd\J	.	8ddd\J	.
.	6 _	.	.	.	.	.	.	.	4ee\	.	.	.	.	.	.	.	.	.	.	4ee\	-te	.	.	.	.	.	.	.	.	4ee\	.	4eee\	.
4E\	10 _	.	4E\	.	4c\	.	.	.	[4gg\	.	4E\	-te	.	4c\	-mnes	.	.	.	.	4gg\	e-	.	4c/	.	4g\	.	4E\	.	.	[4gg\	.	4ggg\	.
=26	=26	=26	=26	=26	=26	=26	=26	=26	=26	=26	=26	=26	=26	=26	=26	=26	=26	=26	=26	=26	=26	=26	=26	=26	=26	=26	=26	=26	=26	=26	=26	=26	=26
!	!	!	!	!	!	!	!	!	!	!	!LO:LB:g=original	!	!	!	!	!	!	!	!	!	!	!	!	!	!LO:N:vis=2	!	!	!	!	!	!	!	!
2F\	9 3	.	2F\	.	1c	.	2.a/	.	4gg\]	.	2F\	e-	.	(1c	po-	.	2.a\	e-	.	4gg\	.	.	1f	.	1a	.	2F\	2.a/	.	4gg\]	.	4ggg\	.
.	8	.	.	.	.	.	.	.	8ff\L	.	.	.	.	.	.	.	.	.	.	(8ff\L	.	.	.	.	.	.	.	.	.	8ff\L	.	8fff\L	.
.	7	.	.	.	.	.	.	.	8ee\J	.	.	.	.	.	.	.	.	.	.	8ee\J)	.	.	.	.	.	.	.	.	.	8ee\J	.	8eee\J	.
2F\	8	.	2F\	.	.	.	.	.	4ff\	.	2F\	-um	.	.	.	.	.	.	.	4ff\	-um	.	.	.	.	.	2F\	.	.	4ff\	.	4fff\	.
.	10	.	.	.	.	.	4cc\	.	[4aa\	.	.	.	.	.	.	.	4cc\	-um	.	[4aa\	om-	.	.	.	.	.	.	4cc\	.	4aa\	.	4aaa\	.
=27	=27	=27	=27	=27	=27	=27	=27	=27	=27	=27	=27	=27	=27	=27	=27	=27	=27	=27	=27	=27	=27	=27	=27	=27	=27	=27	=27	=27	=27	=27	=27	=27	=27
!	!	!	!	!	!	!	!	!	!	!	!	!	!	!	!	!	!	!	!	!LO:LB:g=original	!	!	!	!	!	!	!	!	!	!	!	!	!
*	*	*	*	*	*^	*	*	*	*	*	*	*	*	*	*	*	*	*	*	*	*	*	*	*	*	*	*	*	*	*	*	*	*
*	*	*	*	*	*	*	*	*	*	*	*	*	*	*	*	*	*	*	*	*	*	*	*	*	*	*	*	*	*2\right	*	*2\right	*	*2\right	*
2BB-/	7 3_	.	2BB-/	.	1d	2B-\	.	2b-\	.	4aa\]	.	2BB-/	o-	.	1d)	.	.	2b-\	om-	.	4aa\]	.	.	4r	.	2b-\	.	2BB-/	2b-\	.	4aa\	.	4aaa\	.
.	.	.	.	.	.	.	.	.	.	2gg\	.	.	.	.	.	.	.	.	.	.	2gg\	.	.	2g\	.	.	.	.	.	.	2gg\	.	2ggg\	.
2BBn/	6: _	.	2BBn/	.	.	2Bn\	.	2a-X\	.	.	.	2BBn/	-mnes	.	.	.	.	2a-X\	-nes	.	.	.	.	.	.	2a-X\	.	2BBn/	2a-X\	.	.	.	.	.
.	5 _	.	.	.	.	.	.	.	.	[4ff\	.	.	.	.	.	.	.	.	.	.	[4ff\	-nes	.	4f\	.	.	.	.	.	.	[4ff\	.	4fff\	.
*	*	*	*	*	*v	*v	*	*	*	*	*	*	*	*	*	*	*	*	*	*	*	*	*	*	*	*	*	*	*	*	*	*	*	*
=28	=28	=28	=28	=28	=28	=28	=28	=28	=28	=28	=28	=28	=28	=28	=28	=28	=28	=28	=28	=28	=28	=28	=28	=28	=28	=28	=28	=28	=28	=28	=28	=28	=28
!	!	!	!	!	!	!	!	!	!	!	!	!	!	!	!	!	!	!	!	!	!	!	!	!	!LO:LB:g=original	!	!	!LO:LB:g=original	!	!	!	!	!
2C/	4 _	.	2C/	.	2c\	.	1g	.	4ff\]	.	2C/	po-	.	1c	-pu-	.	2g\	po-	.	(4ff\]	.	.	1c	.	1g	.	2C/	1g	.	4ff\]	.	4fff\	.
.	3_ _	.	.	.	.	.	.	.	2ee\	.	.	.	.	.	.	.	.	.	.	2ee\)	po-	.	.	.	.	.	.	.	.	2ee\	.	2eee\	.
2C/	2	.	2C/	.	2c\	.	.	.	.	.	2C/	-pu-	.	.	.	.	2g\	-pu-	.	.	.	.	.	.	.	.	2C/	.	.	.	.	.	.
.	3	.	.	.	.	.	.	.	8dd\L	.	.	.	.	.	.	.	.	.	.	8dd\L	-pu-	.	.	.	.	.	.	.	.	8dd\L	.	8ddd\L	.
.	.	.	.	.	.	.	.	.	8ee\J	.	.	.	.	.	.	.	.	.	.	8ee\J	.	.	.	.	.	.	.	.	.	8ee\J	.	8eee\J	.
=29	=29	=29	=29	=29	=29	=29	=29	=29	=29	=29	=29	=29	=29	=29	=29	=29	=29	=29	=29	=29	=29	=29	=29	=29	=29	=29	=29	=29	=29	=29	=29	=29	=29
!LO:LB:g=original	!	!	!	!	!LO:LB:g=original	!	!	!	!	!	!	!	!	!	!	!	!	!	!	!	!	!	!	!	!	!	!	!	!	!	!	!	!
4F\	8	.	4F\	.	4f\	.	4a/	.	4ff\	.	2F\	-li	.	2A\	-li	.	2f\	-li	.	2ff\	-li.	.	2f\	.	2an\	.	2F\	2a/	.	2ff\	.	2fff\	.
8F\L	3	.	8F\L	.	8f\L	.	8a/L	.	8aa\L	.	.	.	.	.	.	.	.	.	.	.	.	.	.	.	.	.	.	.	.	.	.	.	.
8E\J	3	.	8E\J	.	8e\J	.	8g/J	.	8gg\J	.	.	.	.	.	.	.	.	.	.	.	.	.	.	.	.	.	.	.	.	.	.	.	.
4D\	3	.	4D\	.	4d\	.	4f/	.	4ff\	.	2r	.	.	2r	.	.	2r	.	.	2r	.	.	2r	.	2r	.	2r	2r	.	2r	.	2r	.
4C\	3	.	4C\	.	4c\	.	4e/	.	4ee\	.	.	.	.	.	.	.	.	.	.	.	.	.	.	.	.	.	.	.	.	.	.	.	.
=30	=30	=30	=30	=30	=30	=30	=30	=30	=30	=30	=30	=30	=30	=30	=30	=30	=30	=30	=30	=30	=30	=30	=30	=30	=30	=30	=30	=30	=30	=30	=30	=30	=30
!	!	!	!LO:LB:g=original	!	!	!	!	!	!	!	!LO:LB:g=original	!	!	!	!	!	!LO:LB:g=original	!	!	!	!	!	!	!	!	!	!	!	!	!	!	!	!
!	!	!	!	!	!	!	!	!	!	!	!LO:TX:a:t=2.	!	!	!LO:TX:a:t=2.	!	!	!LO:TX:a:t=2.	!	!	!LO:TX:a:t=2.	!	!	!LO:LB:g=original	!	!	!	!	!	!	!	!	!LO:TX:a:t=25.	!
1BBn	6	.	1BBn	.	1Bn	.	4d/	.	4dd\	.	0r	.	.	0r	.	.	0r	.	.	0r	.	.	2r	.	2r	.	2r	2r	.	2r	.	1r	.
.	.	.	.	.	.	.	[2G/ 2d	.	8ee\L	.	.	.	.	.	.	.	.	.	.	.	.	.	.	.	.	.	.	.	.	.	.	.	.
.	.	.	.	.	.	.	.	.	8ff\J	.	.	.	.	.	.	.	.	.	.	.	.	.	.	.	.	.	.	.	.	.	.	.	.
.	5-	.	.	.	.	.	.	.	4gg\	.	.	.	.	.	.	.	.	.	.	.	.	.	2g\	.	2g\	.	2BBn/	(2dd\	.	2ff^<\	.	.	.
.	.	.	.	.	.	.	4G/] 4d	.	4ff\	.	.	.	.	.	.	.	.	.	.	.	.	.	.	.	.	.	.	.	.	.	.	.	.
=31	=31	=31	=31	=31	=31	=31	=31	=31	=31	=31	=31	=31	=31	=31	=31	=31	=31	=31	=31	=31	=31	=31	=31	=31	=31	=31	=31	=31	=31	=31	=31	=31	=31
*	*	*	*	*	*tremolo	*	*tremolo	*	*	*	*	*	*	*	*	*	*	*	*	*	*	*	*	*	*	*	*	*	*	*	*	*	*
!	!	!	!	!	!	!	!	!	!LO:LB:g=original	!	!	!	!	!	!	!	!	!	!	!LO:TX:a:t=V&colon;S&colon;	!	!	!	!	!	!	!	!	!	!	!	!	!
!	!	!	!	!	!	!	!	!	!	!	!	!	!	!	!	!	!	!	!	!LO:PB:g=original	!	!	!	!	!	!	!	!	!	!	!	!	!
(2C/	3	.	2C/	ff	8c\L	fp	8G/L 8e	fp	4ee\	.	.	.	.	.	.	.	.	.	.	.	.	.	4c/	.	4g\	.	4C/	4cc\)	.	4ee\	.	1r	.
.	.	.	.	.	8c\	.	8G/ 8e	.	.	.	.	.	.	.	.	.	.	.	.	.	.	.	.	.	.	.	.	.	.	.	.	.	.
.	.	.	.	.	8c\	.	8G/ 8e	.	4r	.	.	.	.	.	.	.	.	.	.	.	.	.	4r	.	4r	.	4r	4r	.	4r	.	.	.
.	.	.	.	.	8c\J	.	8G/J 8e	.	.	.	.	.	.	.	.	.	.	.	.	.	.	.	.	.	.	.	.	.	.	.	.	.	.
4E\	.	.	4E\	.	8c\L	.	8G/L 8e	.	2r	.	.	.	.	.	.	.	.	.	.	.	.	.	2r	.	2r	.	2r	2r	.	2r	.	.	.
.	.	.	.	.	8c\	.	8G/ 8e	.	.	.	.	.	.	.	.	.	.	.	.	.	.	.	.	.	.	.	.	.	.	.	.	.	.
4G\)	.	.	4G\	.	8c\	.	8G/ 8e	.	.	.	.	.	.	.	.	.	.	.	.	.	.	.	.	.	.	.	.	.	.	.	.	.	.
.	.	.	.	.	8c\J	.	8G/J 8e	.	.	.	.	.	.	.	.	.	.	.	.	.	.	.	.	.	.	.	.	.	.	.	.	.	.
=32	=32	=32	=32	=32	=32	=32	=32	=32	=32	=32	=32	=32	=32	=32	=32	=32	=32	=32	=32	=32	=32	=32	=32	=32	=32	=32	=32	=32	=32	=32	=32	=32	=32
*	*	*	*	*	*rep	*	*rep	*	*	*	*	*	*	*	*	*	*	*	*	*	*	*	*	*	*	*	*	*	*	*	*	*	*
!	!	!	!	!	!	!	!LO:TX:a:t=problem:znak powtórzenia taktu	!	!	!	!	!	!	!LO:LB:g=original	!	!	!	!	!	!	!	!	!LO:TX:a:t=15.	!	!LO:TX:a:t=15.	!	!LO:TX:a:t=15	!LO:TX:a:t=15.	!	!LO:TX:a:t=15.	!	!	!
2c\	.	.	2c\	.	8c\L	.	8G/L 8e	.	4r	.	2r	.	.	2r	.	.	2r	.	.	2r	.	.	1r	.	1r	.	1r	1r	.	1r	.	1r	.
.	.	.	.	.	8c\	.	8G/ 8e	.	.	.	.	.	.	.	.	.	.	.	.	.	.	.	.	.	.	.	.	.	.	.	.	.	.
.	.	.	.	.	8c\	.	8G/ 8e	.	8ccc\L	.	.	.	.	.	.	.	.	.	.	.	.	.	.	.	.	.	.	.	.	.	.	.	.
.	.	.	.	.	8c\J	.	8G/J 8e	.	8bbn\J	.	.	.	.	.	.	.	.	.	.	.	.	.	.	.	.	.	.	.	.	.	.	.	.
2r	.	.	2r	.	8c\L	.	8G/L 8e	.	4aa\	.	4r	.	.	4r	.	.	4r	.	.	4r	.	.	.	.	.	.	.	.	.	.	.	.	.
.	.	.	.	.	8c\	.	8G/ 8e	.	.	.	.	.	.	.	.	.	.	.	.	.	.	.	.	.	.	.	.	.	.	.	.	.	.
.	.	.	.	.	8c\	.	8G/ 8e	.	[4gg\	.	8C/	quo-	p	8e\	quo-	p	8g\	quo-	p	8cc\	Om-	p	.	.	.	.	.	.	.	.	.	.	.
.	.	.	.	.	8c\J	.	8G/J 8e	.	.	.	8C/	-ni-	.	8e\	-ni-	.	8g\	-ni-	.	8cc\	-ni-	.	.	.	.	.	.	.	.	.	.	.	.
*	*	*	*	*	*Xrep	*	*Xrep	*	*	*	*	*	*	*	*	*	*	*	*	*	*	*	*	*	*	*	*	*	*	*	*	*	*
=33	=33	=33	=33	=33	=33	=33	=33	=33	=33	=33	=33	=33	=33	=33	=33	=33	=33	=33	=33	=33	=33	=33	=33	=33	=33	=33	=33	=33	=33	=33	=33	=33	=33
!LO:TX:a:t=1	!	!	!LO:TX:a:t=1	!	!	!	!LO:LB:g=original	!	!	!	!	!	!	!	!	!	!	!	!	!	!	!	!	!	!	!	!	!	!	!	!	!	!
1r	.	.	1r	.	8c\L	.	8G/L 8e	.	4gg\]	.	2C/	-am	.	2e\	-am	.	2g\	-am	.	2cc\	-am	.	1r	.	1r	.	1r	1r	.	1r	.	1r	.
.	.	.	.	.	8c\	.	8G/ 8e	.	.	.	.	.	.	.	.	.	.	.	.	.	.	.	.	.	.	.	.	.	.	.	.	.	.
.	.	.	.	.	8c\	.	8G/ 8e	.	8aa\L	.	.	.	.	.	.	.	.	.	.	.	.	.	.	.	.	.	.	.	.	.	.	.	.
.	.	.	.	.	8c\J	.	8G/J 8e	.	8gg\J	.	.	.	.	.	.	.	.	.	.	.	.	.	.	.	.	.	.	.	.	.	.	.	.
.	.	.	.	.	8c\L	.	8G/L 8e	.	4ff\	.	4C/	con-	.	4e\	con-	.	4g\	con-	.	4cc\	con-	.	.	.	.	.	.	.	.	.	.	.	.
.	.	.	.	.	8c\	.	8G/ 8e	.	.	.	.	.	.	.	.	.	.	.	.	.	.	.	.	.	.	.	.	.	.	.	.	.	.
.	.	.	.	.	8c\	.	8G/ 8e	.	4ee\	.	4C/	-fir-	.	4e\	-fir-	.	4g\	-fir-	.	4cc\	-fir-	.	.	.	.	.	.	.	.	.	.	.	.
.	.	.	.	.	8c\J	.	8G/J 8e	.	.	.	.	.	.	.	.	.	.	.	.	.	.	.	.	.	.	.	.	.	.	.	.	.	.
=34	=34	=34	=34	=34	=34	=34	=34	=34	=34	=34	=34	=34	=34	=34	=34	=34	=34	=34	=34	=34	=34	=34	=34	=34	=34	=34	=34	=34	=34	=34	=34	=34	=34
4r	.	.	4r	.	8d\L	.	8G/L 8f	.	4dd\	.	2.BBn/	-ma-	.	2.f\	-ma-	.	2.g\	-ma-	.	2.dd\	-ma-	.	1r	.	1r	.	1r	1r	.	1r	.	1r	.
.	.	.	.	.	8d\	.	8G/ 8f	.	.	.	.	.	.	.	.	.	.	.	.	.	.	.	.	.	.	.	.	.	.	.	.	.	.
8BBn/L	6 5	.	8BBn/L	.	8d\	.	8G/ 8f	.	4r	.	.	.	.	.	.	.	.	.	.	.	.	.	.	.	.	.	.	.	.	.	.	.	.
8AA/J	.	.	8AA/J	.	8d\J	.	8G/J 8f	.	.	.	.	.	.	.	.	.	.	.	.	.	.	.	.	.	.	.	.	.	.	.	.	.	.
4GG/	.	.	4GG/	.	8d\L	.	8G/L 8f	.	2r	.	.	.	.	.	.	.	.	.	.	.	.	.	.	.	.	.	.	.	.	.	.	.	.
.	.	.	.	.	8d\	.	8G/ 8f	.	.	.	.	.	.	.	.	.	.	.	.	.	.	.	.	.	.	.	.	.	.	.	.	.	.
4BB/	.	.	4BB/	.	8d\	.	8G/ 8f	.	.	.	4BB/	-ta	.	4f\	-ta	.	4g\	-ta	.	4dd\	-ta	.	.	.	.	.	.	.	.	.	.	.	.
.	.	.	.	.	8d\J	.	8G/J 8f	.	.	.	.	.	.	.	.	.	.	.	.	.	.	.	.	.	.	.	.	.	.	.	.	.	.
=35	=35	=35	=35	=35	=35	=35	=35	=35	=35	=35	=35	=35	=35	=35	=35	=35	=35	=35	=35	=35	=35	=35	=35	=35	=35	=35	=35	=35	=35	=35	=35	=35	=35
!	!	!	!	!	!	!	!	!	!	!	!LO:LB:g=original	!	!	!	!	!	!	!	!	!	!	!	!	!	!	!	!	!	!	!	!	!	!
4C/	.	.	4C/	.	8c\L	.	8G/L 8e	.	1r	.	2C/	est	.	2e\	est	.	2g\	est	.	2cc\	est	.	1r	.	1r	.	1r	1r	.	1r	.	1r	.
.	.	.	.	.	8c\	.	8G/ 8e	.	.	.	.	.	.	.	.	.	.	.	.	.	.	.	.	.	.	.	.	.	.	.	.	.	.
4r	.	.	4r	.	8c\	.	8G/ 8e	.	.	.	.	.	.	.	.	.	.	.	.	.	.	.	.	.	.	.	.	.	.	.	.	.	.
.	.	.	.	.	8c\J	.	8G/J 8e	.	.	.	.	.	.	.	.	.	.	.	.	.	.	.	.	.	.	.	.	.	.	.	.	.	.
2r	.	.	2r	.	8c\L	.	8G/L 8e	.	.	.	4C/	su-	.	4e\	su-	.	4g\	su-	.	4cc\	su-	.	.	.	.	.	.	.	.	.	.	.	.
.	.	.	.	.	8c\	.	8G/ 8e	.	.	.	.	.	.	.	.	.	.	.	.	.	.	.	.	.	.	.	.	.	.	.	.	.	.
.	.	.	.	.	8c\	.	8G/ 8e	.	.	.	4C/	-per	.	4e\	-per	.	4g\	-per	.	4cc\	-per	.	.	.	.	.	.	.	.	.	.	.	.
.	.	.	.	.	8c\J	.	8G/J 8e	.	.	.	.	.	.	.	.	.	.	.	.	.	.	.	.	.	.	.	.	.	.	.	.	.	.
=36	=36	=36	=36	=36	=36	=36	=36	=36	=36	=36	=36	=36	=36	=36	=36	=36	=36	=36	=36	=36	=36	=36	=36	=36	=36	=36	=36	=36	=36	=36	=36	=36	=36
!LO:LB:g=original	!	!	!LO:LB:g=original	!	!	!	!	!	!	!	!	!	!	!LO:LB:g=original	!	!	!LO:LB:g=original	!	!	!	!	!	!	!	!	!	!	!	!	!	!	!	!
4r	.	.	4r	.	8d\L	.	8G/L 8f	.	1r	.	2.BBn/	nos	.	2.f\	nos	.	2.g\	nos	.	2.dd\	nos	.	1r	.	1r	.	1r	1r	.	1r	.	1r	.
.	.	.	.	.	8d\	.	8G/ 8f	.	.	.	.	.	.	.	.	.	.	.	.	.	.	.	.	.	.	.	.	.	.	.	.	.	.
8BBn/L	6 5	.	8BBn/L	.	8d\	.	8G/ 8f	.	.	.	.	.	.	.	.	.	.	.	.	.	.	.	.	.	.	.	.	.	.	.	.	.	.
8AA/J	.	.	8AA/J	.	8d\J	.	8G/J 8f	.	.	.	.	.	.	.	.	.	.	.	.	.	.	.	.	.	.	.	.	.	.	.	.	.	.
4GG/	.	.	4GG/	.	8d\L	.	8G/L 8f	.	.	.	.	.	.	.	.	.	.	.	.	.	.	.	.	.	.	.	.	.	.	.	.	.	.
.	.	.	.	.	8d\	.	8G/ 8f	.	.	.	.	.	.	.	.	.	.	.	.	.	.	.	.	.	.	.	.	.	.	.	.	.	.
4BB/	.	.	4BB/	.	8d\	.	8G/ 8f	.	.	.	4BB/	mi-	.	4f\	mi-	.	4g\	mi-	.	4dd\	mi-	.	.	.	.	.	.	.	.	.	.	.	.
.	.	.	.	.	8d\J	.	8G/J 8f	.	.	.	.	.	.	.	.	.	.	.	.	.	.	.	.	.	.	.	.	.	.	.	.	.	.
=37	=37	=37	=37	=37	=37	=37	=37	=37	=37	=37	=37	=37	=37	=37	=37	=37	=37	=37	=37	=37	=37	=37	=37	=37	=37	=37	=37	=37	=37	=37	=37	=37	=37
4C/	3	.	4C/	.	8c\L	.	8G/L 8e	.	4r	.	2C/	-se-	.	2e\	-se-	.	2g\	-se-	.	2.cc\	-se-	.	1r	.	1r	.	1r	1r	.	1r	.	1r	.
.	.	.	.	.	8c\	.	8G/ 8e	.	.	.	.	.	.	.	.	.	.	.	.	.	.	.	.	.	.	.	.	.	.	.	.	.	.
4r	8_	.	4r	.	8c\	.	8G/ 8e	.	4cc\	.	.	.	.	.	.	.	.	.	.	.	.	.	.	.	.	.	.	.	.	.	.	.	.
.	.	.	.	.	8c\J	.	8G/J 8e	.	.	.	.	.	.	.	.	.	.	.	.	.	.	.	.	.	.	.	.	.	.	.	.	.	.
4E\	.	.	4E\	.	8c\L	.	8G/L 8g	.	4r	.	2E\	-ri-	.	2c\	-ri-	.	2g\	-ri-	.	.	.	.	.	.	.	.	.	.	.	.	.	.	.
.	.	.	.	.	8c\	.	8G/ 8g	.	.	.	.	.	.	.	.	.	.	.	.	.	.	.	.	.	.	.	.	.	.	.	.	.	.
4r	6 5n	.	4r	.	8c\	.	8G/ 8g	.	4bn\	.	.	.	.	.	.	.	.	.	.	4bn\	-ri-	.	.	.	.	.	.	.	.	.	.	.	.
.	.	.	.	.	8c\J	.	8G/J 8g	.	.	.	.	.	.	.	.	.	.	.	.	.	.	.	.	.	.	.	.	.	.	.	.	.	.
=38	=38	=38	=38	=38	=38	=38	=38	=38	=38	=38	=38	=38	=38	=38	=38	=38	=38	=38	=38	=38	=38	=38	=38	=38	=38	=38	=38	=38	=38	=38	=38	=38	=38
!	!	!	!	!	!LO:LB:g=original	!	!	!	!LO:LB:g=original	!	!	!	!	!	!	!	!	!	!	!LO:LB:g=original	!	!	!	!	!	!	!	!	!	!	!	!	!
4F\	3	.	4F\	.	8c\L	.	8A/L 8f	.	4r	.	2F\	-cor-	.	2c\	-cor-	.	2a\	-cor-	.	2a\	-cor-	.	1r	.	1r	.	1r	1r	.	1r	.	1r	.
.	.	.	.	.	8c\	.	8A/ 8f	.	.	.	.	.	.	.	.	.	.	.	.	.	.	.	.	.	.	.	.	.	.	.	.	.	.
4r	.	.	4r	.	8c\	.	8A/ 8f	.	4a/	.	.	.	.	.	.	.	.	.	.	.	.	.	.	.	.	.	.	.	.	.	.	.	.
.	.	.	.	.	8c\J	.	8A/J 8f	.	.	.	.	.	.	.	.	.	.	.	.	.	.	.	.	.	.	.	.	.	.	.	.	.	.
4F\	6	.	4F\	.	8d\L	.	8A/L 8f	.	4r	.	4F\	-di-	.	4d\	-di-	.	4a\	-di-	.	4ff\	-di-	.	.	.	.	.	.	.	.	.	.	.	.
.	.	.	.	.	8d\	.	8A/ 8f	.	.	.	.	.	.	.	.	.	.	.	.	.	.	.	.	.	.	.	.	.	.	.	.	.	.
4r	.	.	4r	.	8d\	.	8A/ 8f	.	4dd\	.	4F\	-a	.	4d\	-a	.	4a\	-a	.	4dd\	-a	.	.	.	.	.	.	.	.	.	.	.	.
.	.	.	.	.	8d\J	.	8A/J 8f	.	.	.	.	.	.	.	.	.	.	.	.	.	.	.	.	.	.	.	.	.	.	.	.	.	.
=39	=39	=39	=39	=39	=39	=39	=39	=39	=39	=39	=39	=39	=39	=39	=39	=39	=39	=39	=39	=39	=39	=39	=39	=39	=39	=39	=39	=39	=39	=39	=39	=39	=39
!	!	!	!	!	!	!	!	!	!	!	!LO:LB:g=original	!	!	!	!	!	!	!	!	!	!	!	!	!	!	!	!	!	!	!	!	!	!
4G\	8 4	.	4G\	.	8A/L	.	8G/L 8e	.	4r	.	(2G\	e-	.	(2e\	e-	.	(2g\	e-	.	1cc	e-	.	1r	.	1r	.	1r	1r	.	1r	.	1r	.
.	.	.	.	.	8A/	.	8G/ 8e	.	.	.	.	.	.	.	.	.	.	.	.	.	.	.	.	.	.	.	.	.	.	.	.	.	.
4r	.	.	4r	.	8A/	.	8G/ 8e	.	4cc\	.	.	.	.	.	.	.	.	.	.	.	.	.	.	.	.	.	.	.	.	.	.	.	.
.	.	.	.	.	8A/J	.	8G/J 8e	.	.	.	.	.	.	.	.	.	.	.	.	.	.	.	.	.	.	.	.	.	.	.	.	.	.
4F#X\	- 7	.	4F#X\	.	8F#X/L 8A	.	8c/L 8e-X	.	4r	.	2F#X\)	.	.	2e-X\)	.	.	2a\)	.	.	.	.	.	.	.	.	.	.	.	.	.	.	.	.
.	.	.	.	.	8F#/ 8A	.	8c/ 8e-	.	.	.	.	.	.	.	.	.	.	.	.	.	.	.	.	.	.	.	.	.	.	.	.	.	.
4r	.	.	4r	.	8F#/ 8A	.	8c/ 8e-	.	4cc\	.	.	.	.	.	.	.	.	.	.	.	.	.	.	.	.	.	.	.	.	.	.	.	.
.	.	.	.	.	8F#/J 8A	.	8c/J 8e-	.	.	.	.	.	.	.	.	.	.	.	.	.	.	.	.	.	.	.	.	.	.	.	.	.	.
=40	=40	=40	=40	=40	=40	=40	=40	=40	=40	=40	=40	=40	=40	=40	=40	=40	=40	=40	=40	=40	=40	=40	=40	=40	=40	=40	=40	=40	=40	=40	=40	=40	=40
2GG\ 2G	n_	.	2GG\ 2G	.	8G/L	.	8G/L 8d	.	4bn\	.	2G\	-ius	.	2d\	-ius	.	2g\	-ius	.	2bn\	-jus	.	1r	.	1r	.	1r	1r	.	1r	.	1r	.
.	.	.	.	.	8G/	.	8G/ 8d	.	.	.	.	.	.	.	.	.	.	.	.	.	.	.	.	.	.	.	.	.	.	.	.	.	.
.	.	.	.	.	8G/	.	8G/ 8d	.	4r	.	.	.	.	.	.	.	.	.	.	.	.	.	.	.	.	.	.	.	.	.	.	.	.
.	.	.	.	.	8G/J	.	8G/J 8d	.	.	.	.	.	.	.	.	.	.	.	.	.	.	.	.	.	.	.	.	.	.	.	.	.	.
4BBn/	.	.	4BBn\	.	8G/L	.	8G/L 8d	.	2r	.	4r	.	.	4r	.	.	4r	.	.	4r	.	.	.	.	.	.	.	.	.	.	.	.	.
.	.	.	.	.	8G/	.	8G/ 8d	.	.	.	.	.	.	.	.	.	.	.	.	.	.	.	.	.	.	.	.	.	.	.	.	.	.
4D/	.	.	4D\	.	8G/	.	8G/ 8d	.	.	.	4G\	et	.	4d\	et	.	4g\	et	.	4b\	et	.	.	.	.	.	.	.	.	.	.	.	.
.	.	.	.	.	8G/J	.	8G/J 8d	.	.	.	.	.	.	.	.	.	.	.	.	.	.	.	.	.	.	.	.	.	.	.	.	.	.
=41	=41	=41	=41	=41	=41	=41	=41	=41	=41	=41	=41	=41	=41	=41	=41	=41	=41	=41	=41	=41	=41	=41	=41	=41	=41	=41	=41	=41	=41	=41	=41	=41	=41
!	!	!	!LO:LB:g=original	!	!	!	!LO:LB:g=original	!	!	!	!	!	!	!LO:LB:g=original	!	!	!LO:LB:g=original	!	!	!	!	!	!	!	!	!	!	!	!	!	!	!	!
2G\	x	.	2G\	.	8Bn/L	.	8G/L 8d	.	4r	.	2.G\	ve-	.	2.d\	ve-	.	2.g\	ve-	.	2.bn\	ve-	.	1r	.	1r	.	1r	1r	.	1r	.	1r	.
.	.	.	.	.	8B/	.	8G/ 8d	.	.	.	.	.	.	.	.	.	.	.	.	.	.	.	.	.	.	.	.	.	.	.	.	.	.
.	.	.	.	.	8B/	.	8G/ 8d	.	8ff\L	.	.	.	.	.	.	.	.	.	.	.	.	.	.	.	.	.	.	.	.	.	.	.	.
.	.	.	.	.	8B/	.	8G/J 8d	.	8ee\J	.	.	.	.	.	.	.	.	.	.	.	.	.	.	.	.	.	.	.	.	.	.	.	.
*	*	*	*	*	*	*	*Xtremolo	*	*	*	*	*	*	*	*	*	*	*	*	*	*	*	*	*	*	*	*	*	*	*	*	*	*
2r	.	.	2r	.	8B/	.	8G/L 8d	.	4dd\	.	.	.	.	.	.	.	.	.	.	.	.	.	.	.	.	.	.	.	.	.	.	.	.
.	.	.	.	.	8B/J	.	8G/ 8d	.	.	.	.	.	.	.	.	.	.	.	.	.	.	.	.	.	.	.	.	.	.	.	.	.	.
*	*	*	*	*	*Xtremolo	*	*	*	*	*	*	*	*	*	*	*	*	*	*	*	*	*	*	*	*	*	*	*	*	*	*	*	*
.	.	.	.	.	8c\L	.	8G/ 8e	.	4cc\	.	4G\	-ri-	.	4en\	-ri-	.	4g\	-ri-	.	4cc\	-ri-	.	.	.	.	.	.	.	.	.	.	.	.
.	.	.	.	.	8c\J	.	8G/J 8e	.	.	.	.	.	.	.	.	.	.	.	.	.	.	.	.	.	.	.	.	.	.	.	.	.	.
=42	=42	=42	=42	=42	=42	=42	=42	=42	=42	=42	=42	=42	=42	=42	=42	=42	=42	=42	=42	=42	=42	=42	=42	=42	=42	=42	=42	=42	=42	=42	=42	=42	=42
*	*	*	*	*	*tremolo	*	*tremolo	*	*	*	*	*	*	*	*	*	*	*	*	*	*	*	*	*	*	*	*	*	*	*	*	*	*
!LO:TX:a:t=1	!	!	!LO:TX:a:t=1	!	!	!	!	!	!	!	!	!	!	!	!	!	!	!	!	!	!	!	!	!	!	!	!	!	!	!	!	!	!
1r	.	.	1r	.	8d\L	.	8G/L 8f	.	(4bn\	.	2G\	-tas	.	2f\	-tas	.	2g\	-tas	.	2dd\	-tas	.	1r	.	1r	.	1r	1r	.	1r	.	1r	.
.	.	.	.	.	8d\	.	8G/ 8f	.	.	.	.	.	.	.	.	.	.	.	.	.	.	.	.	.	.	.	.	.	.	.	.	.	.
.	.	.	.	.	8d\	.	8G/ 8f	.	8cc\L	.	.	.	.	.	.	.	.	.	.	.	.	.	.	.	.	.	.	.	.	.	.	.	.
.	.	.	.	.	8d\J	.	8G/J 8f	.	8b\J)	.	.	.	.	.	.	.	.	.	.	.	.	.	.	.	.	.	.	.	.	.	.	.	.
.	.	.	.	.	8d\L	.	8G/L 8f	.	4a/	.	4.G\	Do-	.	4.d\	Do-	.	4.g\	Do-	.	4.ff\	Do-	.	.	.	.	.	.	.	.	.	.	.	.
.	.	.	.	.	8d\	.	8G/ 8f	.	.	.	.	.	.	.	.	.	.	.	.	.	.	.	.	.	.	.	.	.	.	.	.	.	.
.	.	.	.	.	8d\	.	8G/ 8f	.	4g/	.	.	.	.	.	.	.	.	.	.	.	.	.	.	.	.	.	.	.	.	.	.	.	.
.	.	.	.	.	8d\J	.	8G/J 8f	.	.	.	8G\	-mi-	.	8d\	-mi-	.	8g\	-mi-	.	8ff\	-mi-	.	.	.	.	.	.	.	.	.	.	.	.
*	*	*	*	*	*Xtremolo	*	*	*	*	*	*	*	*	*	*	*	*	*	*	*	*	*	*	*	*	*	*	*	*	*	*	*	*
=43	=43	=43	=43	=43	=43	=43	=43	=43	=43	=43	=43	=43	=43	=43	=43	=43	=43	=43	=43	=43	=43	=43	=43	=43	=43	=43	=43	=43	=43	=43	=43	=43	=43
!LO:LB:g=original	!	!	!	!	!	!	!	!	!	!	!LO:LB:g=original	!	!	!	!	!	!	!	!	!	!	!	!	!	!	!	!	!	!	!	!	!	!
4r	.	.	4r	.	8c\L	.	8G/L 8e	.	4g/	.	4C/	-ni	.	4e\	-ni	.	4g\	-ni	.	4ee\	-ni	.	1r	.	1r	.	1r	1r	.	1r	.	1r	.
.	.	.	.	.	8c\	.	8G/ 8e	.	.	.	.	.	.	.	.	.	.	.	.	.	.	.	.	.	.	.	.	.	.	.	.	.	.
8c\L	3	.	8c\L	.	8c\	.	8G/ 8e	.	4r	.	(8c\L	ma-	.	(8e\L	ma-	.	4r	.	.	4r	.	.	.	.	.	.	.	.	.	.	.	.	.
!LO:TX:a:t=sic:s=8Bn	!	!	!LO:TX:a:t=sic:s=8Bn	!	!	!	!	!	!	!	!	!	!	!	!	!	!	!	!	!	!	!	!	!	!	!	!	!	!	!	!	!	!
8B-\J	3	.	8B-\J	.	8Bn\J	.	8G/J 8e	.	.	.	8Bn\J	.	.	8d\J	.	.	.	.	.	.	.	.	.	.	.	.	.	.	.	.	.	.	.
*	*	*	*	*	*	*	*Xtremolo	*	*	*	*	*	*	*	*	*	*	*	*	*	*	*	*	*	*	*	*	*	*	*	*	*	*
4A\	3	.	4A\	.	8A/L	.	8c/L 8e	.	2r	.	4A\	.	.	4c\	.	.	2r	.	.	[2ee\	ma-	.	.	.	.	.	.	.	.	.	.	.	.
.	.	.	.	.	8A/	.	8c/ 8e	.	.	.	.	.	.	.	.	.	.	.	.	.	.	.	.	.	.	.	.	.	.	.	.	.	.
4G\	3	.	4G\	.	8G/	.	8Bn/ 8e	.	.	.	4G\)	.	.	4Bn\)	.	.	.	.	.	.	.	.	.	.	.	.	.	.	.	.	.	.	.
.	.	.	.	.	8G/J	.	8B/J 8e	.	.	.	.	.	.	.	.	.	.	.	.	.	.	.	.	.	.	.	.	.	.	.	.	.	.
=44	=44	=44	=44	=44	=44	=44	=44	=44	=44	=44	=44	=44	=44	=44	=44	=44	=44	=44	=44	=44	=44	=44	=44	=44	=44	=44	=44	=44	=44	=44	=44	=44	=44
*	*	*	*	*	*tremolo	*	*tremolo	*	*	*	*	*	*	*	*	*	*	*	*	*	*	*	*	*	*	*	*	*	*	*	*	*	*
!	!	!	!	!	!	!	!	!	!	!	!	!	!	!	!	!	!	!	!	!LO:LB:g=original	!	!	!	!	!	!	!	!	!	!	!	!	!
4F\	3_	.	4F\	.	8F/L	.	8A/L 8d	.	4r	.	2.F\	.	.	2A\	-net	.	4r	.	.	4ee\]	.	.	1r	.	1r	.	1r	1r	.	1r	.	1r	.
.	.	.	.	.	8F/	.	8A/ 8d	.	.	.	.	.	.	.	.	.	.	.	.	.	.	.	.	.	.	.	.	.	.	.	.	.	.
4r	6_	.	4r	.	8F/	.	8A/ 8d	.	8dd\L	.	.	.	.	.	.	.	2a\	ma-	.	4dd\	.	.	.	.	.	.	.	.	.	.	.	.	.
.	.	.	.	.	8F/J	.	8A/J 8d	.	8ee\J	.	.	.	.	.	.	.	.	.	.	.	.	.	.	.	.	.	.	.	.	.	.	.	.
*	*	*	*	*	*	*	*Xtremolo	*	*	*	*	*	*	*	*	*	*	*	*	*	*	*	*	*	*	*	*	*	*	*	*	*	*
4F\	.	.	4F\	.	8F/L	.	8A/L 8d	.	4ff\	.	.	.	.	2r	.	.	.	.	.	8cc#X\L	.	.	.	.	.	.	.	.	.	.	.	.	.
.	.	.	.	.	8F/	.	8A/ 8d	.	.	.	.	.	.	.	.	.	.	.	.	8dd\J	.	.	.	.	.	.	.	.	.	.	.	.	.
4r	6 4n	.	4r	.	8F/	.	8Bn/ 8d	.	4aa\	.	4F\	-net	.	.	.	.	4bn\	-net	.	8ff\L	-net	.	.	.	.	.	.	.	.	.	.	.	.
.	.	.	.	.	8F/J	.	8B/J 8d	.	.	.	.	.	.	.	.	.	.	.	.	8dd\J	.	.	.	.	.	.	.	.	.	.	.	.	.
=45	=45	=45	=45	=45	=45	=45	=45	=45	=45	=45	=45	=45	=45	=45	=45	=45	=45	=45	=45	=45	=45	=45	=45	=45	=45	=45	=45	=45	=45	=45	=45	=45	=45
*	*	*	*	*	*	*	*tremolo	*	*	*	*	*	*	*	*	*	*	*	*	*	*	*	*	*	*	*	*	*	*	*	*	*	*
!	!	!	!	!	!LO:LB:g=original	!	!	!	!	!	!	!	!	!LO:LB:g=original	!	!	!LO:LB:g=original	!	!	!	!	!	!	!	!	!	!	!	!	!	!	!	!
4E\	-	.	4E\	.	8E/L	.	8c/L 8g	.	4r	.	2E\	in	.	2G/	in	.	2cc\	in	.	2gg\	in	.	1r	.	1r	.	1r	1r	.	1r	.	1r	.
.	.	.	.	.	8E/	.	8c/ 8g	.	.	.	.	.	.	.	.	.	.	.	.	.	.	.	.	.	.	.	.	.	.	.	.	.	.
4r	.	.	4r	.	8E/	.	8c/ 8g	.	4gg\	.	.	.	.	.	.	.	.	.	.	.	.	.	.	.	.	.	.	.	.	.	.	.	.
.	.	.	.	.	8E/J	.	8c/J 8g	.	.	.	.	.	.	.	.	.	.	.	.	.	.	.	.	.	.	.	.	.	.	.	.	.	.
4F\	-	.	4F\	.	8F/L	.	8d/L 8f	.	4r	.	2F\	e-	.	2A/	e-	.	2dd\	e-	.	2ff\	ae-	.	.	.	.	.	.	.	.	.	.	.	.
.	.	.	.	.	8F/	.	8d/ 8f	.	.	.	.	.	.	.	.	.	.	.	.	.	.	.	.	.	.	.	.	.	.	.	.	.	.
4r	.	.	4r	.	8F/	.	8d/ 8f	.	4ff\	.	.	.	.	.	.	.	.	.	.	.	.	.	.	.	.	.	.	.	.	.	.	.	.
.	.	.	.	.	8F/J	.	8d/J 8f	.	.	.	.	.	.	.	.	.	.	.	.	.	.	.	.	.	.	.	.	.	.	.	.	.	.
=46	=46	=46	=46	=46	=46	=46	=46	=46	=46	=46	=46	=46	=46	=46	=46	=46	=46	=46	=46	=46	=46	=46	=46	=46	=46	=46	=46	=46	=46	=46	=46	=46	=46
!	!	!	!	!	!	!	!LO:LB:g=original	!	!LO:LB:g=original	!	!	!	!	!	!	!	!	!	!	!	!	!	!	!	!	!	!	!	!	!	!	!	!
4G\	6 4	.	4G\	.	8G/L	.	8c/L 8e	.	4r	.	1G	-ter-	.	2c\	-ter-	.	1g	-ter-	.	(2ee\	-ter-	.	1r	.	1r	.	1r	1r	.	1r	.	1r	.
.	.	.	.	.	8G/	.	8c/ 8e	.	.	.	.	.	.	.	.	.	.	.	.	.	.	.	.	.	.	.	.	.	.	.	.	.	.
4r	.	.	4r	.	8G/	.	8c/ 8e	.	4ee\	.	.	.	.	.	.	.	.	.	.	.	.	.	.	.	.	.	.	.	.	.	.	.	.
.	.	.	.	.	8G/J	.	8c/J 8e	.	.	.	.	.	.	.	.	.	.	.	.	.	.	.	.	.	.	.	.	.	.	.	.	.	.
4G\	n	.	4G\	.	8G/L	.	8Bn/L 8d	.	4r	.	.	.	.	2Bn\	.	.	.	.	.	2dd\)	.	.	.	.	.	.	.	.	.	.	.	.	.
.	.	.	.	.	8G/	.	8B/ 8d	.	.	.	.	.	.	.	.	.	.	.	.	.	.	.	.	.	.	.	.	.	.	.	.	.	.
4r	.	.	4r	.	8G/	.	8B/ 8d	.	4dd\	.	.	.	.	.	.	.	.	.	.	.	.	.	.	.	.	.	.	.	.	.	.	.	.
.	.	.	.	.	8G/J	.	8B/J 8d	.	.	.	.	.	.	.	.	.	.	.	.	.	.	.	.	.	.	.	.	.	.	.	.	.	.
=47	=47	=47	=47	=47	=47	=47	=47	=47	=47	=47	=47	=47	=47	=47	=47	=47	=47	=47	=47	=47	=47	=47	=47	=47	=47	=47	=47	=47	=47	=47	=47	=47	=47
!	!	!	!LO:LB:g=original	!	!	!	!	!	!	!	!	!	!	!	!	!	!	!	!	!	!	!	!	!LO:DY:a	!	!	!LO:LB:g=original	!	!	!	!LO:DY:b	!	!
2C\	8_	.	2C/	.	8c\L	.	8G/L 8e	.	4cc\	.	2C/	-num	.	2c\	-num	.	2e\	-nam	.	2cc\	-num.	.	1c	pp	1g	pp	2C/	1e	pp	[1cc	pp	1r	.
.	.	.	.	.	8c\	.	8G/ 8e	.	.	.	.	.	.	.	.	.	.	.	.	.	.	.	.	.	.	.	.	.	.	.	.	.	.
.	.	.	.	.	8c\	.	8G/ 8e	.	4r	.	.	.	.	.	.	.	.	.	.	.	.	.	.	.	.	.	.	.	.	.	.	.	.
.	.	.	.	.	8c\J	.	8G/J 8e	.	.	.	.	.	.	.	.	.	.	.	.	.	.	.	.	.	.	.	.	.	.	.	.	.	.
4E\	.	.	4E/	.	8c\L	.	8G/L 8e	.	2r	.	2r	.	.	2r	.	.	2r	.	.	2r	.	.	.	.	.	.	4E\	.	.	.	.	.	.
.	.	.	.	.	8c\	.	8G/ 8e	.	.	.	.	.	.	.	.	.	.	.	.	.	.	.	.	.	.	.	.	.	.	.	.	.	.
4G\	.	.	4G/	.	8c\	.	8G/ 8e	.	.	.	.	.	.	.	.	.	.	.	.	.	.	.	.	.	.	.	4G\	.	.	.	.	.	.
.	.	.	.	.	8c\J	.	8G/J 8e	.	.	.	.	.	.	.	.	.	.	.	.	.	.	.	.	.	.	.	.	.	.	.	.	.	.
=48	=48	=48	=48	=48	=48	=48	=48	=48	=48	=48	=48	=48	=48	=48	=48	=48	=48	=48	=48	=48	=48	=48	=48	=48	=48	=48	=48	=48	=48	=48	=48	=48	=48
*	*	*	*	*	*rep	*	*rep	*	*	*	*	*	*	*	*	*	*	*	*	*	*	*	*	*	*	*	*	*	*	*	*	*	*
!	!	!	!	!	!	!	!	!	!	!	!LO:LB:g=original	!	!	!	!	!	!LO:PB:g=original	!	!	!	!	!	!	!	!	!	!	!	!	!	!	!	!
!	!	!	!	!	!	!	!	!	!	!	!	!	!	!	!	!	!LO:TX:a:t=V&colon;S&colon;	!	!	!	!	!	!	!	!	!	!	!	!	!	!	!	!
2c\	x	.	2c\	.	8c\L	.	8G/L 8e	.	4r	.	2C/	Glo-	.	2G/	Glo-	.	2e\	Glo-	.	2cc\	Glo-	.	1c	.	1g	.	2c\	1e	.	1cc]	.	1r	.
.	.	.	.	.	8c\	.	8G/ 8e	.	.	.	.	.	.	.	.	.	.	.	.	.	.	.	.	.	.	.	.	.	.	.	.	.	.
.	.	.	.	.	8c\	.	8G/ 8e	.	8ccc\L	.	.	.	.	.	.	.	.	.	.	.	.	.	.	.	.	.	.	.	.	.	.	.	.
.	.	.	.	.	8c\J	.	8G/J 8e	.	8bbn\J	.	.	.	.	.	.	.	.	.	.	.	.	.	.	.	.	.	.	.	.	.	.	.	.
2r	.	.	2r	.	8c\L	.	8G/L 8e	.	4aa\	.	4C/	-ri-	.	4G/	-ri-	.	4e\	-ri-	.	4cc\	-ri-	.	.	.	.	.	2r	.	.	.	.	.	.
.	.	.	.	.	8c\	.	8G/ 8e	.	.	.	.	.	.	.	.	.	.	.	.	.	.	.	.	.	.	.	.	.	.	.	.	.	.
.	.	.	.	.	8c\	.	8G/ 8e	.	[4gg\	.	4C/	-a	.	4G/	-a	.	4e\	-a	.	4cc\	-a	.	.	.	.	.	.	.	.	.	.	.	.
.	.	.	.	.	8c\J	.	8G/J 8e	.	.	.	.	.	.	.	.	.	.	.	.	.	.	.	.	.	.	.	.	.	.	.	.	.	.
*	*	*	*	*	*Xrep	*	*Xrep	*	*	*	*	*	*	*	*	*	*	*	*	*	*	*	*	*	*	*	*	*	*	*	*	*	*
=49	=49	=49	=49	=49	=49	=49	=49	=49	=49	=49	=49	=49	=49	=49	=49	=49	=49	=49	=49	=49	=49	=49	=49	=49	=49	=49	=49	=49	=49	=49	=49	=49	=49
*	*	*	*	*	*rep	*	*rep	*	*	*	*	*	*	*	*	*	*	*	*	*	*	*	*	*	*	*	*	*	*	*	*	*	*
!LO:TX:a:t=1	!	!	!LO:TX:a:t=1	!	!	!	!	!	!	!	!	!	!	!	!	!	!	!	!	!	!	!	!	!	!	!	!LO:TX:a:t=1.	!	!	!LO:LB:g=original	!	!	!
1r	.	.	1r	.	8c\L	.	8G/L 8e	.	4gg\]	.	2C/	pa-	.	2G/	pa-	.	2e\	pa-	.	2cc\	pa-	.	1c	.	1g	.	1r	1e	.	1cc	.	1r	.
.	.	.	.	.	8c\	.	8G/ 8e	.	.	.	.	.	.	.	.	.	.	.	.	.	.	.	.	.	.	.	.	.	.	.	.	.	.
.	.	.	.	.	8c\	.	8G/ 8e	.	8aa\L	.	.	.	.	.	.	.	.	.	.	.	.	.	.	.	.	.	.	.	.	.	.	.	.
.	.	.	.	.	8c\J	.	8G/J 8e	.	8gg\J	.	.	.	.	.	.	.	.	.	.	.	.	.	.	.	.	.	.	.	.	.	.	.	.
.	.	.	.	.	8c\L	.	8G/L 8e	.	4ff\	.	4C/	-tri	.	4G/	-tri	.	4e\	-tri	.	4cc\	-tri	.	.	.	.	.	.	.	.	.	.	.	.
.	.	.	.	.	8c\	.	8G/ 8e	.	.	.	.	.	.	.	.	.	.	.	.	.	.	.	.	.	.	.	.	.	.	.	.	.	.
.	.	.	.	.	8c\	.	8G/ 8e	.	4ee\	.	4C/	et	.	4G/	et	.	4e\	et	.	4cc\	et	.	.	.	.	.	.	.	.	.	.	.	.
.	.	.	.	.	8c\J	.	8G/J 8e	.	.	.	.	.	.	.	.	.	.	.	.	.	.	.	.	.	.	.	.	.	.	.	.	.	.
*	*	*	*	*	*Xrep	*	*Xrep	*	*	*	*	*	*	*	*	*	*	*	*	*	*	*	*	*	*	*	*	*	*	*	*	*	*
=50	=50	=50	=50	=50	=50	=50	=50	=50	=50	=50	=50	=50	=50	=50	=50	=50	=50	=50	=50	=50	=50	=50	=50	=50	=50	=50	=50	=50	=50	=50	=50	=50	=50
!	!	!	!	!	!	!	!	!	!	!	!	!	!	!LO:LB:g=original	!	!	!	!	!	!LO:LB:g=original	!	!	!	!	!	!	!	!	!	!	!	!	!
4r	.	.	4r	.	8d\L	.	8G/L 8f	.	4dd\	.	2.BBn/	fi-	.	2.G/	fi-	.	2.f\	fi-	.	2.dd\	fi-	.	1g	.	1g	.	4r	1f	.	1dd	.	1r	.
.	.	.	.	.	8d\	.	8G/ 8f	.	.	.	.	.	.	.	.	.	.	.	.	.	.	.	.	.	.	.	.	.	.	.	.	.	.
8BBn/L	6 5	.	8BBn/L	.	8d\	.	8G/ 8f	.	4r	.	.	.	.	.	.	.	.	.	.	.	.	.	.	.	.	.	8BBn/L	.	.	.	.	.	.
8AA/J	.	.	8AA/J	.	8d\J	.	8G/J 8f	.	.	.	.	.	.	.	.	.	.	.	.	.	.	.	.	.	.	.	8AA/J	.	.	.	.	.	.
4GG/	.	.	4GG/	.	8d\L	.	8G/L 8f	.	2r	.	.	.	.	.	.	.	.	.	.	.	.	.	.	.	.	.	4GG/	.	.	.	.	.	.
.	.	.	.	.	8d\	.	8G/ 8f	.	.	.	.	.	.	.	.	.	.	.	.	.	.	.	.	.	.	.	.	.	.	.	.	.	.
4BB/	.	.	4BB/	.	8d\	.	8G/ 8f	.	.	.	4BB/	-li-	.	4G/	-li-	.	4f\	-li-	.	4dd\	-li-	.	.	.	.	.	4BB/	.	.	.	.	.	.
.	.	.	.	.	8d\J	.	8G/J 8f	.	.	.	.	.	.	.	.	.	.	.	.	.	.	.	.	.	.	.	.	.	.	.	.	.	.
=51	=51	=51	=51	=51	=51	=51	=51	=51	=51	=51	=51	=51	=51	=51	=51	=51	=51	=51	=51	=51	=51	=51	=51	=51	=51	=51	=51	=51	=51	=51	=51	=51	=51
!LO:LB:g=original	!	!	!	!	!	!	!	!	!LO:TX:a:t=1	!	!	!	!	!	!	!	!	!	!	!	!	!	!	!	!	!	!	!	!	!	!	!	!
4C/	8	.	4C/	.	8c\L	.	8G/L 8e	.	1r	.	2C/	-o	.	2G/	-o	.	2e\	-o	.	2cc\	-o	.	2.c/	.	2.g\	.	4C/	2.e/	.	2.cc\	.	1r	.
.	.	.	.	.	8c\	.	8G/ 8e	.	.	.	.	.	.	.	.	.	.	.	.	.	.	.	.	.	.	.	.	.	.	.	.	.	.
4r	.	.	4r	.	8c\	.	8G/ 8e	.	.	.	.	.	.	.	.	.	.	.	.	.	.	.	.	.	.	.	4r	.	.	.	.	.	.
.	.	.	.	.	8c\J	.	8G/J 8e	.	.	.	.	.	.	.	.	.	.	.	.	.	.	.	.	.	.	.	.	.	.	.	.	.	.
*	*	*	*	*	*Xtremolo	*	*	*	*	*	*	*	*	*	*	*	*	*	*	*	*	*	*	*	*	*	*	*	*	*	*	*	*
2r	.	.	2r	.	4c\	.	4G/ 4e	.	.	.	4C/	et	.	4G/	et	.	4e\	et	.	4cc\	et	.	.	.	.	.	2r	.	.	.	.	.	.
.	.	.	.	.	4r	.	4r	.	.	.	4C/	spi-	.	4G/	spi-	.	4e\	spi-	.	4cc\	spi-	.	4r	.	4r	.	.	4r	.	4r	.	.	.
=52	=52	=52	=52	=52	=52	=52	=52	=52	=52	=52	=52	=52	=52	=52	=52	=52	=52	=52	=52	=52	=52	=52	=52	=52	=52	=52	=52	=52	=52	=52	=52	=52	=52
!LO:TX:a:t=Serzo	!	!	!	!	!	!	!	!	!	!	!LO:LB:g=original	!	!	!	!	!	!LO:LB:g=original	!	!	!	!	!	!LO:TX:a:t=4.	!	!LO:TX:a:t=4.	!	!LO:TX:a:t=3.	!LO:TX:a:t=3.	!	!	!	!	!
!	!	!	!	!	!	!	!	!	!	!	!	!	!	!	!	!	!	!	!	!	!	!	!	!	!	!	!	!	!	!LO:TX:a:t=3.	!	!	!
4D\	.	p	4D\	.	2r	.	2r	.	2r	.	1D	-ri-	.	1F	-ri-	.	1f	-ri-	.	1b-X	-ri-	.	00r	.	00r	.	0r	0r	.	0r	.	1r	.
4r	.	.	4r	.	.	.	.	.	.	.	.	.	.	.	.	.	.	.	.	.	.	.	.	.	.	.	.	.	.	.	.	.	.
2r	.	.	2r	.	4d\	p	4f/	p	4b-X\	p	.	.	.	.	.	.	.	.	.	.	.	.	.	.	.	.	.	.	.	.	.	.	.
.	.	.	.	.	4r	.	4r	.	4r	.	.	.	.	.	.	.	.	.	.	.	.	.	.	.	.	.	.	.	.	.	.	.	.
=53	=53	=53	=53	=53	=53	=53	=53	=53	=53	=53	=53	=53	=53	=53	=53	=53	=53	=53	=53	=53	=53	=53	=53	=53	=53	=53	=53	=53	=53	=53	=53	=53	=53
!	!	!	!LO:LB:g=original	!	!	!	!	!	!	!	!	!	!	!	!	!	!	!	!	!	!	!	!	!	!	!	!	!	!	!	!	!	!
4E\	.	.	4E\	.	2r	.	2r	.	2r	.	1E	-tui	.	1G	-tui	.	1c	-tui	.	2r	.	.	.	.	.	.	.	.	.	.	.	1r	.
4r	.	.	4r	.	.	.	.	.	.	.	.	.	.	.	.	.	.	.	.	.	.	.	.	.	.	.	.	.	.	.	.	.	.
2r	.	.	2r	.	4c\	.	4c/ 4g	.	4b-X\	.	.	.	.	.	.	.	.	.	.	2b-\	-tui	.	.	.	.	.	.	.	.	.	.	.	.
.	.	.	.	.	4r	.	4r	.	4r	.	.	.	.	.	.	.	.	.	.	.	.	.	.	.	.	.	.	.	.	.	.	.	.
=54	=54	=54	=54	=54	=54	=54	=54	=54	=54	=54	=54	=54	=54	=54	=54	=54	=54	=54	=54	=54	=54	=54	=54	=54	=54	=54	=54	=54	=54	=54	=54	=54	=54
!	!	!	!	!	!LO:LB:g=original	!	!	!	!	!	!	!	!	!	!	!	!	!	!	!	!	!	!	!	!	!	!	!	!	!	!	!	!
4F\	.	.	4F\	.	2r	.	2r	.	2r	.	1F	San-	.	1F	San-	.	1c	San-	.	1a	San-	.	.	.	.	.	1r	1r	.	1r	.	1r	.
4r	.	.	4r	.	.	.	.	.	.	.	.	.	.	.	.	.	.	.	.	.	.	.	.	.	.	.	.	.	.	.	.	.	.
2r	.	.	2r	.	4c\	.	4c/ 4f	.	4a/	.	.	.	.	.	.	.	.	.	.	.	.	.	.	.	.	.	.	.	.	.	.	.	.
.	.	.	.	.	4r	.	4r	.	4r	.	.	.	.	.	.	.	.	.	.	.	.	.	.	.	.	.	.	.	.	.	.	.	.
=55	=55	=55	=55	=55	=55	=55	=55	=55	=55	=55	=55	=55	=55	=55	=55	=55	=55	=55	=55	=55	=55	=55	=55	=55	=55	=55	=55	=55	=55	=55	=55	=55	=55
!	!	!	!	!	!	!	!LO:LB:g=original	!	!LO:LB:g=original	!	!	!	!	!	!	!	!	!	!	!	!	!	!	!	!	!	!	!	!	!	!	!	!
4F\	.	f	4F\	f	4f\	.	4a/	f	4a/	ff	4F\	-cto	.	4F/	-cto	.	4c\	-cto	.	4a\	-cto	.	.	.	.	.	4r	4r	.	4r	.	4r	.
4A\	5-	.	4A\	.	4A/	.	2f/	.	8ff\L	.	4r	.	.	4r	.	.	4r	.	.	8ff\	Si-	.	.	.	.	.	4A\	2f/	.	8ff\L	.	2ff\	.
.	.	.	.	.	.	.	.	.	8ee\J	.	.	.	.	.	.	.	.	.	.	8ee\	-cut	.	.	.	.	.	.	.	.	8ee\J	.	.	.
4B-\	3#	.	4B-\	.	4B-/	.	.	.	4dd\	.	4B-\	si-	.	4d\	Si-	.	4f\	Si-	.	4dd\	e-	.	.	.	.	.	4B-X\	.	.	4dd\	.	.	.
4A\	6 5#	.	4A\	.	4A/	.	4f#X/	.	4cc\	.	4A\	-cut	.	4d\	-cut	.	4f#X\	-cut	.	4cc\	-rat	.	.	.	.	.	4A\	4f#X/	.	4cc\	.	4ff#X\	.
=56	=56	=56	=56	=56	=56	=56	=56	=56	=56	=56	=56	=56	=56	=56	=56	=56	=56	=56	=56	=56	=56	=56	=56	=56	=56	=56	=56	=56	=56	=56	=56	=56	=56
!	!	!	!	!	!	!	!	!	!	!	!	!	!	!LO:LB:g=original	!	!	!	!	!	!LO:LB:g=original	!	!	!	!	!	!	!	!	!	!	!	!	!
4G\	3	.	4G\	.	4G/	.	4g/	.	4b-\	.	4G\	e-	.	2d\	in	.	2g\	in	.	4b-\	in	.	2r	.	2r	.	4G\	1g	.	4b-\	.	1gg	.
4F\	3	.	4F\	.	4F/	.	2g/	.	8a\L	.	4F\	-rat	.	.	.	.	.	.	.	8a\L	prin-	.	.	.	.	.	4F\	.	.	8a\L	.	.	.
.	2	.	.	.	.	.	.	.	8g\J	.	.	.	.	.	.	.	.	.	.	8g\J	.	.	.	.	.	.	.	.	.	8g\J	.	.	.
4E\	6 3_	.	4E\	.	4E/	.	.	.	4cc\	.	4E\	in	.	2c\	prin-	.	2g\	prin-	.	4cc\	-ci-	.	2c/	.	2g\	.	4E\	.	.	4cc\	.	.	.
8D\L	6 _	.	8D\L	.	8D/L	.	4g/	.	[4b-\	.	8D\L	prin-	.	.	.	.	.	.	.	[4b-\	-pi-	.	.	.	.	.	8D\L	.	.	[4b-\	.	.	.
8E\J	.	.	8E\J	.	8E/J	.	.	.	.	.	8E\J	.	.	.	.	.	.	.	.	.	.	.	.	.	.	.	8E\J	.	.	.	.	.	.
=57	=57	=57	=57	=57	=57	=57	=57	=57	=57	=57	=57	=57	=57	=57	=57	=57	=57	=57	=57	=57	=57	=57	=57	=57	=57	=57	=57	=57	=57	=57	=57	=57	=57
!	!	!	!	!	!	!	!	!	!	!	!LO:LB:g=original	!	!	!	!	!	!LO:LB:g=original	!	!	!	!	!	!	!	!	!	!	!	!	!	!	!	!
2.F\	4	.	2.F\	.	2.F/	.	1cc	.	4b-\]	.	4.F\	-ci-	.	4.c\	-ci-	.	4.f\	-ci-	.	4b-\]	.	.	1f	.	2f\	.	2.F\	1cc	.	4b-\]	.	1ccc	.
.	3	.	.	.	.	.	.	.	8a\L	.	.	.	.	.	.	.	.	.	.	(8a\L	.	.	.	.	.	.	.	.	.	8a\L	.	.	.
.	2	.	.	.	.	.	.	.	8g\J	.	8F\	-pi-	.	8c\	-pi-	.	8f\	-pi-	.	8g\J)	.	.	.	.	.	.	.	.	.	8g\J	.	.	.
.	3	.	.	.	.	.	.	.	4a\	.	4F\	-o	.	4c\	-o	.	4f\	-o	.	4a\	-o	.	.	.	2a\	.	.	.	.	4a\	.	.	.
(4AA/	-	.	4AA/	.	4A/	.	.	.	[4ff\	.	4AA/	et	.	4c\	et	.	4f\	et	.	4ff\	et	.	.	.	.	.	4AA/	.	.	[4ff\	.	.	.
=58	=58	=58	=58	=58	=58	=58	=58	=58	=58	=58	=58	=58	=58	=58	=58	=58	=58	=58	=58	=58	=58	=58	=58	=58	=58	=58	=58	=58	=58	=58	=58	=58	=58
2GG/)	7 3_	.	2GG/	.	(2G/	.	1b-	.	4ff\]	.	2GG/	nunc	.	2B-\	nunc	.	2g\	nunc	.	4ff\	nunc	.	2g\	.	1g	.	2GG/	1b-	.	4ff\]	.	1bb-	.
.	5- __	.	.	.	.	.	.	.	8ee\L	.	.	.	.	.	.	.	.	.	.	(8ee\L	.	.	.	.	.	.	.	.	.	8ee\L	.	.	.
.	.	.	.	.	.	.	.	.	8dd\J	.	.	.	.	.	.	.	.	.	.	8dd\J)	.	.	.	.	.	.	.	.	.	8dd\J	.	.	.
2C/	10 _	.	2C/	.	2c/)	.	.	.	8ee\L	.	2C/	et	.	2B-\	et	.	2g\	et	.	8ee\L	et	.	2c/	.	.	.	2E\	.	.	2ee\	.	.	.
.	8 _	.	.	.	.	.	.	.	8cc\	.	.	.	.	.	.	.	.	.	.	(8cc\	.	.	.	.	.	.	.	.	.	.	.	.	.
.	9 _	.	.	.	.	.	.	.	8dd\	.	.	.	.	.	.	.	.	.	.	8dd\)	.	.	.	.	.	.	.	.	.	.	.	.	.
.	10 _	.	.	.	.	.	.	.	8ee\J	.	.	.	.	.	.	.	.	.	.	8ee\J	.	.	.	.	.	.	.	.	.	.	.	.	.
=59	=59	=59	=59	=59	=59	=59	=59	=59	=59	=59	=59	=59	=59	=59	=59	=59	=59	=59	=59	=59	=59	=59	=59	=59	=59	=59	=59	=59	=59	=59	=59	=59	=59
!LO:LB:g=original	!	!	!LO:LB:g=original	!	!	!	!	!	!	!	!	!	!	!	!	!	!	!	!	!	!	!	!	!	!	!	!	!	!	!	!	!	!
4FF/	8	.	4FF/	.	4F/	.	4a/	.	4ff\	.	4F\	sem-	.	4A\	Sem-	.	4f\	Sem-	.	4ff\	sem-	.	4f\	.	4a\	.	4FF/	4a\	.	4ff\	.	4aa\	.
4A\	6	.	4A\	.	4A/	.	8ff\L	.	2ff\	.	8F\	-per	.	8f\L	-per	.	8f\	-per	.	8ff\	-per	.	4r	.	4r	.	4A\	(8ff\L	.	2ff\	.	8fff\L	.
.	.	.	.	.	.	.	8ee\J	.	.	.	8r	.	.	8e\J	.	.	8r	.	.	8r	.	.	.	.	.	.	.	8ee\J)	.	.	.	8eee\J	.
4B-\	3	.	4B-\	.	4B-/	.	4dd\	.	.	.	4B-\	et	.	4d\	et	.	4f\	et	.	4dd\	et	.	2r	.	2r	.	4B-\	4dd\	.	.	.	4ddd\	.
4A\	6# 4 3	.	4A\	.	4A/	.	4cc\	.	4ff#X\	.	4A\	in	.	4c\	in	.	4f#X\	in	.	4dd\	in	.	.	.	.	.	4A\	4cc\	.	4ff#X\	.	4ccc\	.
=60	=60	=60	=60	=60	=60	=60	=60	=60	=60	=60	=60	=60	=60	=60	=60	=60	=60	=60	=60	=60	=60	=60	=60	=60	=60	=60	=60	=60	=60	=60	=60	=60	=60
!	!	!	!	!	!	!	!	!	!	!	!LO:PB:g=original	!	!	!LO:LB:g=original	!	!	!LO:LB:g=original	!	!	!LO:LB:g=original	!	!	!	!	!	!	!LO:LB:g=original	!LO:LB:g=original	!	!	!	!LO:LB:g=original	!
4G\	3	.	4G\	.	4G/	.	4b-\	.	4gg\	.	(4G\	se-	.	4B-\	Se-	.	2g\	se-	.	2dd\	sae-	.	2r	.	2r	.	4G\	4b-\	.	4gg\	.	4bb-\	.
4F\	3	.	4F\	.	4F/	.	8a\L	.	2gg\	.	4F\)	.	.	8A\	-cu-	.	.	.	.	.	.	.	.	.	.	.	4F\	8a\L	.	2gg\	.	8aa\L	.
.	2	.	.	.	.	.	8g\J	.	.	.	.	.	.	8G\	-la	.	.	.	.	.	.	.	.	.	.	.	.	8g\J	.	.	.	8gg\J	.
4E\	6 3_	.	4E\	.	4E/	.	4cc\	.	.	.	(4E\	-cu-	.	4c\	se-	.	2g\	-cu-	.	2cc\	-cu-	.	2c/	.	2g\	.	4E\	4cc\	.	.	.	4ccc\	.
8D\L	6 _	.	8D\L	.	8D/L	.	[4b-\	.	4gg\	.	8D\L	.	.	4B-\	-cu-	.	.	.	.	.	.	.	.	.	.	.	8D\L	[4b-\	.	4gg\	.	4bb-\	.
8E\J	.	.	8E\J	.	8E/J	.	.	.	.	.	8E\J)	.	.	.	.	.	.	.	.	.	.	.	.	.	.	.	8E\J	.	.	.	.	.	.
=61	=61	=61	=61	=61	=61	=61	=61	=61	=61	=61	=61	=61	=61	=61	=61	=61	=61	=61	=61	=61	=61	=61	=61	=61	=61	=61	=61	=61	=61	=61	=61	=61	=61
!	!	!	!	!	!LO:LB:g=original	!	!	!	!	!	!	!	!	!	!	!	!	!	!	!	!	!	!	!	!	!	!	!	!	!	!	!	!
2.F\	3	.	2.F\	.	2.F/	.	4b-\]	.	1ccc	.	2F\	-la	.	(4B-\	-lo-	.	2f\	-la	.	2cc\	-la	.	1f	.	2f\	.	2.F\	4b-\]	.	1ccc	.	4bb-\	.
.	.	.	.	.	.	.	8a\L	.	.	.	.	.	.	8A\L	.	.	.	.	.	.	.	.	.	.	.	.	.	8a\L	.	.	.	8aa\L	.
.	.	.	.	.	.	.	8g\J	.	.	.	.	.	.	8G\J)	.	.	.	.	.	.	.	.	.	.	.	.	.	8g\J	.	.	.	8gg\J	.
.	.	.	.	.	.	.	4a\	.	.	.	4F\	se-	.	4A\	-rum	.	4f\	se-	.	4cc\	sae-	.	.	.	2a\	.	.	4a\	.	.	.	4aa\	.
4AA/	6	.	4AA/	.	4A/	.	[4ff\	.	.	.	4AA/	-cu-	.	4f\	a-	.	4f\	-cu-	.	4cc\	-cu-	.	.	.	.	.	4AA/	[4ff\	.	.	.	4fff\	.
=62	=62	=62	=62	=62	=62	=62	=62	=62	=62	=62	=62	=62	=62	=62	=62	=62	=62	=62	=62	=62	=62	=62	=62	=62	=62	=62	=62	=62	=62	=62	=62	=62	=62
!	!	!	!	!	!	!	!	!	!LO:LB:g=original	!	!	!	!	!	!	!	!	!	!	!	!	!	!	!	!LO:LB:g=original	!	!	!	!	!	!	!	!
2GG/	7	.	2GG/	.	2G/	.	4ff\]	.	1bb-	.	2GG/	-lo-	.	4f\	.	.	2g\	-lo-	.	2b-\	-lo	.	2f\	.	1g	.	2GG/	4ff\]	.	1bb-	.	4fff\	.
.	.	.	.	.	.	.	8ee\L	.	.	.	.	.	.	(8e\L	.	.	.	.	.	.	.	.	.	.	.	.	.	(8ee\L	.	.	.	8eee\L	.
.	.	.	.	.	.	.	8dd\J	.	.	.	.	.	.	8d\J	.	.	.	.	.	.	.	.	.	.	.	.	.	8dd\J)	.	.	.	8ddd\J	.
2C/	7	.	2C/	.	2c\	.	8ee\L	.	.	.	2C/	-rum	.	8e\L	.	.	2g\	-rum	.	2b-\	rum	.	2c/	.	.	.	2C/	2ee\	.	.	.	8eee\L	.
.	.	.	.	.	.	.	8cc\	.	.	.	.	.	.	8c\	.	.	.	.	.	.	.	.	.	.	.	.	.	.	.	.	.	8ccc\	.
.	.	.	.	.	.	.	8dd\	.	.	.	.	.	.	8d\	.	.	.	.	.	.	.	.	.	.	.	.	.	.	.	.	.	8ddd\	.
.	.	.	.	.	.	.	8ee\J	.	.	.	.	.	.	8e\J)	.	.	.	.	.	.	.	.	.	.	.	.	.	.	.	.	.	8eee\J	.
=63	=63	=63	=63	=63	=63	=63	=63	=63	=63	=63	=63	=63	=63	=63	=63	=63	=63	=63	=63	=63	=63	=63	=63	=63	=63	=63	=63	=63	=63	=63	=63	=63	=63
*	*	*	*	*	*	*	*	*	*tremolo	*	*	*	*	*	*	*	*	*	*	*	*	*	*	*	*	*	*	*	*	*	*	*	*
!	!	!	!	!	!	!	!LO:LB:g=original	!	!	!	!LO:LB:g=original	!	!	!LO:LB:g=original	!	!	!	!	!	!	!	!	!LO:LB:g=original	!	!	!	!	!	!	!	!	!	!
4FF/	3_	.	4FF/	.	4F/	.	8cc\L 8ff	.	8aa\L	.	4F\	a-	.	4f\	-men	.	1f	a-	.	1a	A-	.	1f	.	1a	.	4FF/	2ff\	.	2aa\	.	1fff	.
.	.	.	.	.	.	.	8cc\ 8ff	.	8aa\	.	.	.	.	.	.	.	.	.	.	.	.	.	.	.	.	.	.	.	.	.	.	.	.
8F\L	.	.	8F\L	.	8f\L	.	8cc\ 8ff	.	8aa\	.	8F\L	.	.	4c\	a-	.	.	.	.	.	.	.	.	.	.	.	8F\L	.	.	.	.	.	.
8E\J	.	.	8E\J	.	8e\J	.	8cc\J 8ff	.	8aa\J	.	8E\J	.	.	.	.	.	.	.	.	.	.	.	.	.	.	.	8E\J	.	.	.	.	.	.
4D\	5_	.	4D\	.	4d\	.	8dd\L 8ff	.	8aa\L	.	4D/	.	.	2d\	.	.	.	.	.	.	.	.	.	.	.	.	4D\	2ff\	.	[2ff\	.	.	.
.	.	.	.	.	.	.	8dd\ 8ff	.	8aa\	.	.	.	.	.	.	.	.	.	.	.	.	.	.	.	.	.	.	.	.	.	.	.	.
4C\	.	.	4C\	.	4c\	.	8dd\ 8ff	.	8aa\	.	4C/	.	.	.	.	.	.	.	.	.	.	.	.	.	.	.	4C\	.	.	.	.	.	.
.	.	.	.	.	.	.	8dd\J 8ff	.	8aa\J	.	.	.	.	.	.	.	.	.	.	.	.	.	.	.	.	.	.	.	.	.	.	.	.
=64	=64	=64	=64	=64	=64	=64	=64	=64	=64	=64	=64	=64	=64	=64	=64	=64	=64	=64	=64	=64	=64	=64	=64	=64	=64	=64	=64	=64	=64	=64	=64	=64	=64
!	!	!	!LO:LB:g=original	!	!	!	!	!	!	!	!	!	!	!	!	!	!LO:LB:g=original	!	!	!	!	!	!	!	!	!	!	!	!	!LO:LB:g=original	!	!	!
4BB-/	8	.	4BB-/	.	4B-/	.	8dd\L 8ff	.	8bb-\L	.	4BB-/	.	.	1d	.	.	2f\	-men	.	1b-	.	.	2r	.	2r	.	4BB-/	1dd	.	2ff\]	.	2fff\	.
.	.	.	.	.	.	.	8dd\ 8ff	.	8bb-\	.	.	.	.	.	.	.	.	.	.	.	.	.	.	.	.	.	.	.	.	.	.	.	.
4AA/	.	.	4AA/	.	4A/	.	8dd\ 8ff	.	8bb-\	.	4AA/	.	.	.	.	.	.	.	.	.	.	.	.	.	.	.	4AA/	.	.	.	.	.	.
.	.	.	.	.	.	.	8dd\J 8ff	.	8bb-\J	.	.	.	.	.	.	.	.	.	.	.	.	.	.	.	.	.	.	.	.	.	.	.	.
4GG/	10_	.	4GG/	.	4G/	.	8dd\L 8gg	.	8bb-\L	.	4GG/	-men	.	.	.	.	2g\	A-	.	.	.	.	2g\	.	2g\	.	4GG/	.	.	[2gg\	.	2ggg\	.
.	.	.	.	.	.	.	8dd\ 8gg	.	8bb-\	.	.	.	.	.	.	.	.	.	.	.	.	.	.	.	.	.	.	.	.	.	.	.	.
8G\L	.	.	8G\L	.	8g\L	.	8dd\ 8gg	.	8bb-\	.	8G\L	a-	.	.	.	.	.	.	.	.	.	.	.	.	.	.	8G\L	.	.	.	.	.	.
8F\J	.	.	8F\J	.	8f\J	.	8dd\J 8gg	.	8bb-\J	.	8F\J	.	.	.	.	.	.	.	.	.	.	.	.	.	.	.	8F\J	.	.	.	.	.	.
=65	=65	=65	=65	=65	=65	=65	=65	=65	=65	=65	=65	=65	=65	=65	=65	=65	=65	=65	=65	=65	=65	=65	=65	=65	=65	=65	=65	=65	=65	=65	=65	=65	=65
!LO:LB:g=original	!	!	!	!	!	!	!	!	!	!	!	!	!	!	!	!	!	!	!	!	!	!	!	!	!	!	!	!	!	!	!	!	!
4E\	5_	.	4E\	.	4e\	.	8ee\L 8gg	.	8bb-\L	.	4E\	.	.	2e\	-men	.	1g	.	.	2cc\	-men	.	2g\	.	2g\	.	4E\	1ee	.	2gg\]	.	1ggg	.
.	.	.	.	.	.	.	8ee\ 8gg	.	8bb-\	.	.	.	.	.	.	.	.	.	.	.	.	.	.	.	.	.	.	.	.	.	.	.	.
4D\	.	.	4D\	.	4d\	.	8ee\ 8gg	.	8bb-\	.	4D\	.	.	.	.	.	.	.	.	.	.	.	.	.	.	.	4D\	.	.	.	.	.	.
.	.	.	.	.	.	.	8ee\J 8gg	.	8bb-\J	.	.	.	.	.	.	.	.	.	.	.	.	.	.	.	.	.	.	.	.	.	.	.	.
4C\	8_	.	4C\	.	4c\	.	8ee\L 8gg	.	8ccc\L	.	4C\	.	.	2e\	a-	.	.	.	.	2cc\	A-	.	2c/	.	2g\	.	4C\	.	.	(2gg\	.	.	.
.	.	.	.	.	.	.	8ee\ 8gg	.	8ccc\	.	.	.	.	.	.	.	.	.	.	.	.	.	.	.	.	.	.	.	.	.	.	.	.
4BB-\	.	.	4BB-\	.	4B-\	.	8ee\ 8gg	.	8ccc\	.	4BB-\	.	.	.	.	.	.	.	.	.	.	.	.	.	.	.	4BB-\	.	.	.	.	.	.
.	.	.	.	.	.	.	8ee\J 8gg	.	8ccc\J	.	.	.	.	.	.	.	.	.	.	.	.	.	.	.	.	.	.	.	.	.	.	.	.
=66	=66	=66	=66	=66	=66	=66	=66	=66	=66	=66	=66	=66	=66	=66	=66	=66	=66	=66	=66	=66	=66	=66	=66	=66	=66	=66	=66	=66	=66	=66	=66	=66	=66
!	!	!	!	!	!	!	!	!	!	!	!LO:LB:g=original	!	!	!	!	!	!	!	!	!	!	!	!	!	!	!	!	!	!	!	!	!	!
4AA/	6_	.	4AA/	.	4A/	.	8ee\L 8aa	.	8ccc\L	.	4AA/	-men	.	2e\	.	.	2a\	-men	.	1cc	.	.	2A/	.	2a\	.	4AA\	2ee\	.	2aa\)	.	2aaa\	.
.	.	.	.	.	.	.	8ee\ 8aa	.	8ccc\	.	.	.	.	.	.	.	.	.	.	.	.	.	.	.	.	.	.	.	.	.	.	.	.
8A\L	.	.	8A\L	.	8a\L	.	8ee\ 8aa	.	8ccc\	.	8A\L	a-	.	.	.	.	.	.	.	.	.	.	.	.	.	.	8A\L	.	.	.	.	.	.
8G\J	.	.	8G\J	.	8g\J	.	8ee\J 8aa	.	8ccc\J	.	8G\J	.	.	.	.	.	.	.	.	.	.	.	.	.	.	.	8G\J	.	.	.	.	.	.
4F\	5_	.	4F\	.	4f\	.	8ff\L 8aa	.	8ccc\L	.	4F\	.	.	2f\	.	.	[2a\	A-	.	.	.	.	2f\	.	2a\	.	4F\	2ff\	.	[2aa\	.	2ccc\	.
.	.	.	.	.	.	.	8ff\ 8aa	.	8ccc\	.	.	.	.	.	.	.	.	.	.	.	.	.	.	.	.	.	.	.	.	.	.	.	.
4E\	.	.	4E\	.	4e\	.	8ff\ 8aa	.	8ccc\	.	4E\	.	.	.	.	.	.	.	.	.	.	.	.	.	.	.	4E\	.	.	.	.	.	.
.	.	.	.	.	.	.	8ff\J 8aa	.	8ccc\J	.	.	.	.	.	.	.	.	.	.	.	.	.	.	.	.	.	.	.	.	.	.	.	.
=67	=67	=67	=67	=67	=67	=67	=67	=67	=67	=67	=67	=67	=67	=67	=67	=67	=67	=67	=67	=67	=67	=67	=67	=67	=67	=67	=67	=67	=67	=67	=67	=67	=67
4D\	8_	.	4D\	.	4d\	.	8ff\L 8aa	.	8ddd\L	.	4D/	.	.	2f\	-men	.	2a\]	.	.	2dd\	-men	.	2f\	.	2a\	.	4D/	1ff	.	2aa\]	.	1ddd	.
.	.	.	.	.	.	.	8ff\ 8aa	.	8ddd\	.	.	.	.	.	.	.	.	.	.	.	.	.	.	.	.	.	.	.	.	.	.	.	.
4C\	.	.	4C\	.	4c\	.	8ff\ 8aa	.	8ddd\	.	4C/	.	.	.	.	.	.	.	.	.	.	.	.	.	.	.	4C/	.	.	.	.	.	.
.	.	.	.	.	.	.	8ff\J 8aa	.	8ddd\J	.	.	.	.	.	.	.	.	.	.	.	.	.	.	.	.	.	.	.	.	.	.	.	.
4BB-/	10_	.	4BB-\	.	4B-\	.	8ff\L 8bb-	.	8ddd\L	.	4BB-/	-men	.	2f\	a-	.	2b-\	.	.	[2dd\	A-	.	2r	.	2r	.	4BB-/	.	.	[2bb-\	.	.	.
.	.	.	.	.	.	.	8ff\ 8bb-	.	8ddd\	.	.	.	.	.	.	.	.	.	.	.	.	.	.	.	.	.	.	.	.	.	.	.	.
8B-\L	.	.	8B-\L	.	8b-\L	.	8ff\ 8bb-	.	8ddd\	.	8B-\L	a-	.	.	.	.	.	.	.	.	.	.	.	.	.	.	8B-\L	.	.	.	.	.	.
8A\J	.	.	8A\J	.	8a\J	.	8ff\J 8bb-	.	8ddd\J	.	8A\J	.	.	.	.	.	.	.	.	.	.	.	.	.	.	.	8A\J	.	.	.	.	.	.
=68	=68	=68	=68	=68	=68	=68	=68	=68	=68	=68	=68	=68	=68	=68	=68	=68	=68	=68	=68	=68	=68	=68	=68	=68	=68	=68	=68	=68	=68	=68	=68	=68	=68
!	!	!	!	!	!LO:LB:g=original	!	!	!	!	!	!	!	!	!LO:LB:g=original	!	!	!	!	!	!LO:LB:g=original	!	!	!	!	!	!	!LO:LB:g=original	!	!	!	!	!	!
4G\	5_	.	4G\	.	4g\	.	8gg\L 8bb-	.	8ddd\L	.	4G\	.	.	1g	.	.	2b-\	-men	.	2dd\]	.	.	1g	.	1g	.	4G\	1gg	.	2bb-\]	.	2ddd\	.
.	.	.	.	.	.	.	8gg\ 8bb-	.	8ddd\	.	.	.	.	.	.	.	.	.	.	.	.	.	.	.	.	.	.	.	.	.	.	.	.
4F\	.	.	4F\	.	4f\	.	8gg\ 8bb-	.	8ddd\	.	4F\	.	.	.	.	.	.	.	.	.	.	.	.	.	.	.	4F\	.	.	.	.	.	.
.	.	.	.	.	.	.	8gg\J 8bb-	.	8ddd\J	.	.	.	.	.	.	.	.	.	.	.	.	.	.	.	.	.	.	.	.	.	.	.	.
4E\	8_	.	4E\	.	4e\	.	8gg\L 8bb-	.	8eee\L	.	4E\	.	.	.	.	.	2b-\	A-	.	2ee\	-men	.	.	.	.	.	4E\	.	.	[2bb-\	.	2eee\	.
.	.	.	.	.	.	.	8gg\ 8bb-	.	8eee\	.	.	.	.	.	.	.	.	.	.	.	.	.	.	.	.	.	.	.	.	.	.	.	.
4D\	.	.	4D\	.	4d\	.	8gg\ 8bb-	.	8eee\	.	4D\	.	.	.	.	.	.	.	.	.	.	.	.	.	.	.	4D\	.	.	.	.	.	.
.	.	.	.	.	.	.	8gg\J 8bb-	.	8eee\J	.	.	.	.	.	.	.	.	.	.	.	.	.	.	.	.	.	.	.	.	.	.	.	.
=69	=69	=69	=69	=69	=69	=69	=69	=69	=69	=69	=69	=69	=69	=69	=69	=69	=69	=69	=69	=69	=69	=69	=69	=69	=69	=69	=69	=69	=69	=69	=69	=69	=69
!	!	!	!LO:LB:g=original	!	!	!	!	!	!	!	!LO:LB:g=original	!	!	!	!	!	!	!	!	!	!	!	!	!	!	!	!	!	!	!	!	!	!
4C/	7_	.	4C/	.	4c\	.	8gg\L 8bb-	.	8eee\L	.	2C/	.	.	1g	.	.	(2b-\	.	.	2ee\	.	.	2c/	.	2g\	.	4C/	1gg	.	2bb-\]	.	1eee	.
.	.	.	.	.	.	.	8gg\ 8bb-	.	8eee\	.	.	.	.	.	.	.	.	.	.	.	.	.	.	.	.	.	.	.	.	.	.	.	.
4C/	.	.	4C/	.	4c\	.	8gg\ 8bb-	.	8eee\	.	.	.	.	.	.	.	.	.	.	.	.	.	.	.	.	.	4C/	.	.	.	.	.	.
.	.	.	.	.	.	.	8gg\J 8bb-	.	8eee\J	.	.	.	.	.	.	.	.	.	.	.	.	.	.	.	.	.	.	.	.	.	.	.	.
4C#X/	6 5_	.	4C#X/	.	4c#X\	.	8gg\L 8aa	.	8eee\L	.	2C#X/	.	.	.	.	.	2a\)	.	.	2ee\	A-	.	2g\	.	2g\	.	4C#X/	.	.	2aa\	.	.	.
.	.	.	.	.	.	.	8gg\ 8aa	.	8eee\	.	.	.	.	.	.	.	.	.	.	.	.	.	.	.	.	.	.	.	.	.	.	.	.
4C#/	.	.	4C#/	.	4c#\	.	8gg\ 8aa	.	8eee\	.	.	.	.	.	.	.	.	.	.	.	.	.	.	.	.	.	4C#/	.	.	.	.	.	.
.	.	.	.	.	.	.	8gg\J 8aa	.	8eee\J	.	.	.	.	.	.	.	.	.	.	.	.	.	.	.	.	.	.	.	.	.	.	.	.
*	*	*	*	*	*	*	*	*	*Xtremolo	*	*	*	*	*	*	*	*	*	*	*	*	*	*	*	*	*	*	*	*	*	*	*	*
=70	=70	=70	=70	=70	=70	=70	=70	=70	=70	=70	=70	=70	=70	=70	=70	=70	=70	=70	=70	=70	=70	=70	=70	=70	=70	=70	=70	=70	=70	=70	=70	=70	=70
!LO:LB:g=original	!	!	!	!	!	!	!LO:LB:g=original	!	!	!	!	!	!	!	!	!	!	!	!	!	!	!	!	!	!	!	!	!	!	!	!	!	!
4D\	9 3_	.	4D\	.	4d\	.	8ff\L 8aa	.	8eee\L	.	2D\	-men	.	2.f\	.	.	2a\	.	.	(4ee\	.	.	2f\	.	2a\	.	4D\	2ff\	.	2aa\	.	4eee\	.
.	.	.	.	.	.	.	8ff\ 8aa	.	8eee\	.	.	.	.	.	.	.	.	.	.	.	.	.	.	.	.	.	.	.	.	.	.	.	.
4D\	8 _	.	4D\	.	4d\	.	8ff\ 8aa	.	8ddd\	.	.	.	.	.	.	.	.	.	.	2dd\)	.	.	.	.	.	.	4D\	.	.	.	.	2ddd\	.
.	.	.	.	.	.	.	8ff\J 8aa	.	8ddd\J	.	.	.	.	.	.	.	.	.	.	.	.	.	.	.	.	.	.	.	.	.	.	.	.
*	*	*	*	*	*	*	*Xtremolo	*	*	*	*	*	*	*	*	*	*	*	*	*	*	*	*	*	*	*	*	*	*	*	*	*	*
4BB-\	10	.	4BB-/	.	4B-/	.	8ff\L	.	8ddd\L	.	2BB-/	a-	.	.	.	.	4b-\	-men	.	.	.	.	2r	.	2r	.	4BB-/	4dd\	.	4ff\	.	.	.
.	.	.	.	.	.	.	8ff\	.	8ddd\	.	.	.	.	.	.	.	.	.	.	.	.	.	.	.	.	.	.	.	.	.	.	.	.
4BB-\	.	.	4BB-/	.	4B-/	.	8dd\	.	8bb-\	.	.	.	.	4d\	-men	.	[4f\	A-	.	4b-\	-men	.	.	.	.	.	4BB-/	4b-\	.	4dd\	.	4bb-\	.
.	.	.	.	.	.	.	8dd\J	.	8bb-\J	.	.	.	.	.	.	.	.	.	.	.	.	.	.	.	.	.	.	.	.	.	.	.	.
=71	=71	=71	=71	=71	=71	=71	=71	=71	=71	=71	=71	=71	=71	=71	=71	=71	=71	=71	=71	=71	=71	=71	=71	=71	=71	=71	=71	=71	=71	=71	=71	=71	=71
*	*	*	*	*	*	*	*tremolo	*	*tremolo	*	*	*	*	*	*	*	*	*	*	*	*	*	*	*	*	*	*	*	*	*	*	*	*
!	!	!	!	!	!	!	!	!	!LO:LB:g=original	!	!	!	!	!	!	!	!	!	!	!	!	!	!	!	!	!	!	!LO:LB:g=original	!	!	!	!	!
4C/	6 4_	.	4C/	.	4c\	.	8cc\L	.	8aa\L	.	[>1C	.	.	2c\	s-	.	2f\]	.	.	1a	A-	.	1f	.	1a	.	4C\	1a	.	2cc\	.	1aa	.
.	.	.	.	.	.	.	8cc\	.	8aa\	.	.	.	.	.	.	.	.	.	.	.	.	.	.	.	.	.	.	.	.	.	.	.	.
4C/	.	.	4C/	.	4c\	.	8cc\	.	8aa\	.	.	.	.	.	.	.	.	.	.	.	.	.	.	.	.	.	4C\	.	.	.	.	.	.
.	.	.	.	.	.	.	8cc\J	.	8aa\J	.	.	.	.	.	.	.	.	.	.	.	.	.	.	.	.	.	.	.	.	.	.	.	.
4C/	.	.	4C/	.	4c\	.	8ff\L	.	8aa\L	.	.	.	.	[2f\	.	.	2c\	-men	.	.	.	.	.	.	.	.	4C\	.	.	2ff\	.	.	.
.	.	.	.	.	.	.	8ff\	.	8aa\	.	.	.	.	.	.	.	.	.	.	.	.	.	.	.	.	.	.	.	.	.	.	.	.
4C/	.	.	4C/	.	4c\	.	8ff\	.	8aa\	.	.	.	.	.	.	.	.	.	.	.	.	.	.	.	.	.	4C\	.	.	.	.	.	.
.	.	.	.	.	.	.	8ff\J	.	8aa\J	.	.	.	.	.	.	.	.	.	.	.	.	.	.	.	.	.	.	.	.	.	.	.	.
=72	=72	=72	=72	=72	=72	=72	=72	=72	=72	=72	=72	=72	=72	=72	=72	=72	=72	=72	=72	=72	=72	=72	=72	=72	=72	=72	=72	=72	=72	=72	=72	=72	=72
*	*	*	*rep	*	*rep	*	*	*	*	*	*	*	*	*	*	*	*	*	*	*	*	*	*	*	*	*	*rep	*	*	*	*	*	*
4C/	5_ 4	.	4C/	.	4c\	.	8ff\L	.	8gg\L	.	1C]	.	.	2f\]	.	.	1c	A-	.	1g	.	.	1c	.	1g	.	4C\	1g	.	2ff\	.	1gg	.
.	.	.	.	.	.	.	8ff\	.	8gg\	.	.	.	.	.	.	.	.	.	.	.	.	.	.	.	.	.	.	.	.	.	.	.	.
4C/	.	.	4C/	.	4c\	.	8ff\	.	8gg\	.	.	.	.	.	.	.	.	.	.	.	.	.	.	.	.	.	4C\	.	.	.	.	.	.
.	.	.	.	.	.	.	8ff\J	.	8gg\J	.	.	.	.	.	.	.	.	.	.	.	.	.	.	.	.	.	.	.	.	.	.	.	.
4C/	3	.	4C/	.	4c\	.	8ee\L	.	8gg\L	.	.	.	.	2e\	.	.	.	.	.	.	.	.	.	.	.	.	4C\	.	.	2ee\	.	.	.
.	.	.	.	.	.	.	8ee\	.	8gg\	.	.	.	.	.	.	.	.	.	.	.	.	.	.	.	.	.	.	.	.	.	.	.	.
4C/	.	.	4C/	.	4c\	.	8ee\	.	8gg\	.	.	.	.	.	.	.	.	.	.	.	.	.	.	.	.	.	4C\	.	.	.	.	.	.
.	.	.	.	.	.	.	8ee\J	.	8gg\J	.	.	.	.	.	.	.	.	.	.	.	.	.	.	.	.	.	.	.	.	.	.	.	.
*	*	*	*Xrep	*	*Xrep	*	*	*	*	*	*	*	*	*	*	*	*	*	*	*	*	*	*	*	*	*	*Xrep	*	*	*	*	*	*
=73	=73	=73	=73	=73	=73	=73	=73	=73	=73	=73	=73	=73	=73	=73	=73	=73	=73	=73	=73	=73	=73	=73	=73	=73	=73	=73	=73	=73	=73	=73	=73	=73	=73
!	!	!	!	!	!	!	!	!	!	!	!	!	!	!LO:LB:g=original	!	!	!	!	!	!	!	!	!	!	!	!	!	!	!	!	!	!LO:LB:g=original	!
[1FF	8	.	[>1FF	.	[1F	.	4ff\	.	4ff\	.	2F\	-men	.	2f\	-men	.	2c\	-men	.	2a\	-men	.	4A/	.	4f\	.	4FF/	2a/	.	4ff\	.	4aa\	.
.	.	.	.	.	.	.	(4a\	.	(8ff\L	.	.	.	.	.	.	.	.	.	.	.	.	.	2F/	.	2f\	.	4A\ 4c	.	.	8ff\L	.	8fff\L	.
.	.	.	.	.	.	.	.	.	8ee\J	.	.	.	.	.	.	.	.	.	.	.	.	.	.	.	.	.	.	.	.	8ee\J	.	8eee\J	.
.	.	.	.	.	.	.	4b-\	.	4dd\)	.	2r	.	.	2r	.	.	2r	.	.	2r	.	.	.	.	.	.	4B-\ 4d	4b-/	.	4dd\	.	4ddd\	.
.	.	.	.	.	.	.	4a\	.	4cc\	.	.	.	.	.	.	.	.	.	.	.	.	.	4F/	.	4f\	.	4A\ 4c	4b-/	.	4cc\	.	4ccc\	.
*	*	*	*	*	*	*	*	*	*Xtremolo	*	*	*	*	*	*	*	*	*	*	*	*	*	*	*	*	*	*	*	*	*	*	*	*
=74	=74	=74	=74	=74	=74	=74	=74	=74	=74	=74	=74	=74	=74	=74	=74	=74	=74	=74	=74	=74	=74	=74	=74	=74	=74	=74	=74	=74	=74	=74	=74	=74	=74
!	!	!	!	!	!	!	!	!	!	!	!LO:TX:a:t=2.	!	!	!LO:TX:a:t=2.	!	!	!LO:TX:a:t=2.	!	!	!LO:TX:a:t=2.	!	!	!	!	!	!	!	!	!	!	!	!	!
!	!	!	!	!	!	!	!	!	!	!	!LO:LB:g=original	!	!	!	!	!	!LO:LB:g=original	!	!	!	!	!	!	!	!	!	!	!	!	!	!	!	!
1FF]	.	.	1FF]	.	1F]	.	4b-\	.	8dd\L	.	0r	.	.	0r	.	.	0r	.	.	0r	.	.	1F	.	1f	.	4B-\ 4d	4b-\	.	4dd\	.	4ddd\	.
.	.	.	.	.	.	.	.	.	8ff\	.	.	.	.	.	.	.	.	.	.	.	.	.	.	.	.	.	.	.	.	.	.	.	.
.	.	.	.	.	.	.	4a\	.	8cc\	.	.	.	.	.	.	.	.	.	.	.	.	.	.	.	.	.	4A\ 4c	4a\	.	4cc\	.	4ccc\	.
.	.	.	.	.	.	.	.	.	8ff\J	.	.	.	.	.	.	.	.	.	.	.	.	.	.	.	.	.	.	.	.	.	.	.	.
.	.	.	.	.	.	.	4b-\)	.	8dd\L	.	.	.	.	.	.	.	.	.	.	.	.	.	.	.	.	.	4d\	4b-\	.	4dd\	.	4ddd\	.
.	.	.	.	.	.	.	.	.	8bb-\	.	.	.	.	.	.	.	.	.	.	.	.	.	.	.	.	.	.	.	.	.	.	.	.
.	.	.	.	.	.	.	4g\	.	8ee\	.	.	.	.	.	.	.	.	.	.	.	.	.	.	.	.	.	4G\ 4B-	4g\	.	4ee\	.	4bb-\	.
.	.	.	.	.	.	.	.	.	8bb-\J	.	.	.	.	.	.	.	.	.	.	.	.	.	.	.	.	.	.	.	.	.	.	.	.
=75	=75	=75	=75	=75	=75	=75	=75	=75	=75	=75	=75	=75	=75	=75	=75	=75	=75	=75	=75	=75	=75	=75	=75	=75	=75	=75	=75	=75	=75	=75	=75	=75	=75
!	!	!	!	!	!	!	!	!	!	!	!	!	!	!	!	!	!	!	!	!	!	!	!	!	!	!	!	!	!	!LO:LB:g=original	!	!	!
4FF/	.	.	4FF/	.	4F/	.	4a\	.	4aa\	.	.	.	.	.	.	.	.	.	.	.	.	.	1F	.	1f	.	4F\ 4A	4a\	.	4ff\	.	4aa\	.
4r	.	.	4r	.	8f\L 8a	.	8ff\L	.	8aa\L	.	.	.	.	.	.	.	.	.	.	.	.	.	.	.	.	.	8F\L 8A	8f\L	.	8a\L	.	8aa\L	.
.	.	.	.	.	8g\J 8b-	.	8gg\J	.	8bb-\J	.	.	.	.	.	.	.	.	.	.	.	.	.	.	.	.	.	8G\J 8B-	8g\J	.	8b-\J	.	8bb-\J	.
2r	.	.	2r	.	4g#X\ 4bn	.	4gg#X\	.	4bbn\	.	.	.	.	.	.	.	.	.	.	.	.	.	.	.	.	.	4G#X\ 4Bn	4g#X\	.	4bn\	.	4bbn\	.
.	.	.	.	.	4a\ 4cc	.	4aa\	.	4ccc\	.	.	.	.	.	.	.	.	.	.	.	.	.	.	.	.	.	4A\ 4c	4a\	.	4cc\	.	4ccc\	.
=76	=76	=76	=76	=76	=76	=76	=76	=76	=76	=76	=76	=76	=76	=76	=76	=76	=76	=76	=76	=76	=76	=76	=76	=76	=76	=76	=76	=76	=76	=76	=76	=76	=76
!LO:LB:g=original	!	!	!LO:LB:g=original	!	!LO:LB:g=original	!	!	!	!	!	!	!	!	!	!	!	!	!	!	!LO:LB:g=original	!	!	!	!	!	!	!LO:LB:g=original	!	!	!	!	!	!
4r	10_	.	4r	.	1b- 1dd	.	1bb-	>]	[1ddd	>	1BB-	a-	.	1B-	a-	.	[1f	A-	.	1dd	A-	.	1F	.	1f	.	4B-X\ 4d	1b-	.	1dd	.	1ddd	.
8BB-/L	.	.	(8BB-/L	.	.	.	.	.	.	]	.	.	.	.	.	.	.	.	.	.	.	.	.	.	.	.	8BB-/L	.	.	.	.	.	.
8C/J	.	.	8C/J)	.	.	.	.	.	.	.	.	.	.	.	.	.	.	.	.	.	.	.	.	.	.	.	8C/J	.	.	.	.	.	.
4D\	.	.	4D/	.	.	.	.	.	.	.	.	.	.	.	.	.	.	.	.	.	.	.	.	.	.	.	4D\	.	.	.	.	.	.
8BB-\L	.	.	8BB-/L	.	.	.	.	.	.	.	.	.	.	.	.	.	.	.	.	.	.	.	.	.	.	.	8BB-\L	.	.	.	.	.	.
8C\J	.	.	8C/J	.	.	.	.	.	.	.	.	.	.	.	.	.	.	.	.	.	.	.	.	.	.	.	8C\J	.	.	.	.	.	.
=77	=77	=77	=77	=77	=77	=77	=77	=77	=77	=77	=77	=77	=77	=77	=77	=77	=77	=77	=77	=77	=77	=77	=77	=77	=77	=77	=77	=77	=77	=77	=77	=77	=77
!	!	!	!	!	!	!	!LO:LB:g=original	!	!	!	!	!	!	!	!	!	!	!	!	!	!	!	!	!	!	!	!	!	!	!	!	!	!
2D\	.	.	2D\	.	2..b-\ 2..dd	.	2..bb-\	.	2..ddd\]	.	2D/	.	.	2..B-\	.	.	1f]	.	.	2..dd\	.	.	2..F/	.	2..f\	.	2D\	2..b-\	.	2..dd\	.	2..ddd\	.
(4.BB-/	.	.	4.BB-/	.	.	.	.	.	.	.	4.BB-/	.	.	.	.	.	.	.	.	.	.	.	.	.	.	.	4.BB-/	.	.	.	.	.	.
!	!	!	!	!	!	!	!	!	!	!	!	!	!	!	!	!	!	!	!	!	!	!	!	!	!	!	!	!	!	!LO:TX:a:t=c	!	!LO:TX:a:t=problem:brakuje 16 w takcie	!
8FF/)	5	[[	8FF/	[[	8a\ 8cc	.	8aa\	]]	8ccc\	.	8FF/ 8F	.	[[	8A\	.	.	.	.	.	8cc\	.	.	8F/	.	8f\	.	8FF/	8a\	.	8cc\	.	16fff\	.
.	.	.	.	.	.	.	.	.	.	.	.	.	.	.	.	.	.	.	.	.	.	.	.	.	.	.	.	.	.	.	.	16ryy	.
=78	=78	=78	=78	=78	=78	=78	=78	=78	=78	=78	=78	=78	=78	=78	=78	=78	=78	=78	=78	=78	=78	=78	=78	=78	=78	=78	=78	=78	=78	=78	=78	=78	=78
!	!	!	!LO:TX:a:t=problem:pod całą nutą crescendo-diminuendo	!	!	!	!	!	!LO:LB:g=original	!	!LO:TX:a:t=problem:pod całą nutą crescendo-diminuendo	!	!	!	!	!	!	!	!	!	!	!	!LO:LB:g=original	!	!	!	!	!	!	!	!	!	!
1FF	.	<	[>1FF	<	[>1a [1cc	.	1aa	<	[1ccc	<[	1FF 1F	.	<	1A	.	.	1f	.	.	[1cc	.	.	1F	.	1f	.	1FF	1a	.	1cc	.	1fff<^	.
.	.	[	.	[	.	.	.	[	.	.	.	.	[	.	.	.	.	.	.	.	.	.	.	.	.	.	.	.	.	.	.	.	.
.	.	.	.	>	.	.	.	>	.	.	.	.	>	.	.	.	.	.	.	.	.	.	.	.	.	.	.	.	.	.	.	.	.
.	.	.	.	]	.	.	.	]	.	.	.	.	]	.	.	.	.	.	.	.	.	.	.	.	.	.	.	.	.	.	.	.	.
=79	=79	=79	=79	=79	=79	=79	=79	=79	=79	=79	=79	=79	=79	=79	=79	=79	=79	=79	=79	=79	=79	=79	=79	=79	=79	=79	=79	=79	=79	=79	=79	=79	=79
2FF/	.	>	2FF/]	.	2a\] 2cc]	.	2aa\	.	2ccc\]	>	2FF/ 2F	-men	.	2A\	-men	.	2f\	-men	.	2cc\]	-men	.	2F\	.	2f\	.	2FF/	2.a/	.	2cc\	.	2fff\	.
.	.	]	.	.	.	.	.	.	.	.	.	.	.	.	.	.	.	.	.	.	.	.	.	.	.	.	.	.	.	.	.	.	.
2r	.	.	2r	.	2r	.	2r	.	2r	]	2r	.	.	2r	.	.	2r	.	.	2r	.	.	2r	.	2r	.	2r	.	.	2r	.	2r	.
.	.	.	.	.	.	.	.	.	.	.	.	.	.	.	.	.	.	.	.	.	.	.	.	.	.	.	.	4r	.	.	.	.	.
==	==	==	==	==	==	==	==	==	==	==	==	==	==	==	==	==	==	==	==	==	==	==	==	==	==	==	==	==	==	==	==	==	==
*-	*-	*-	*-	*-	*-	*-	*-	*-	*-	*-	*-	*-	*-	*-	*-	*-	*-	*-	*-	*-	*-	*-	*-	*-	*-	*-	*-	*-	*-	*-	*-	*-	*-
!!!system-decoration: [(g1)][(g2)][(g3)][(g4)]{g5}
!!!RDF**kern: >= above
!!!RDF**kern: <= below
!!!ENC: Anna Matuszewska
!!!END: 2020-05-31
